(.../pcb-gcode-3.6.0.4/pcb-gcode.ulp)
(Copyright 2005 - 2012 by John Johnson)
(See readme.txt for licensing terms.)
(This file generated from the board:)
(.../HandHeld_O2_Analyzer/HandHeld_O2_Analyzer.brd)
(Current profile is .../pcb-gcode-3.6.0.4/profiles/generic.pp  )
(This file generated 3/1/2021 4:10 PM)
(Settings from pcb-machine.h)
(  Tool Size)
(0.3000 )
(Z Axis Settings)
(  High     Up        Down     Drill)
(12.7000 	2.4000 	-0.1000 	-1.7000 )
(spindle on time = 3.0000)
(milling depth = -0.2540)
(text depth = -0.1270)
(tool change at 0.0000 -12.0000 20.0000 )
(feed rate xy = F100.00 )
(feed rate z  = F50.00 )
(Settings from pcb-defaults.h)
(isolate min = 0.0254)
(isolate max = 0.3000)
(isolate step = 0.3000)
(Generated top outlines, top drill, bottom drill, )
(Unit of measure: mm)
(Metric Mode)
G21
(Absolute Coordinates)
G90
G00 X0.0000 Y0.0000 
M03
G04 P3.000000
G00 Z2.4000 
G00 X20.9158 Y19.4558 
G01 Z-0.1000 F50.00 
G01 X20.5732 Y19.1132 F100.00 
G01 X20.1534 Y18.8708 
G01 X19.6853 Y18.7454 
G01 X19.2007 Y18.7454 
G01 X18.7326 Y18.8708 
G01 X18.3128 Y19.1132 
G01 X17.9702 Y19.4558 
G01 X17.7278 Y19.8756 
G01 X17.6024 Y20.3437 
G01 X17.6024 Y20.8283 
G01 X17.7278 Y21.2964 
G01 X17.9702 Y21.7162 
G01 X18.3128 Y22.0588 
G01 X18.7326 Y22.3012 
G01 X19.2007 Y22.4266 
G01 X19.6853 Y22.4266 
G01 X20.1534 Y22.3012 
G01 X20.5732 Y22.0588 
G01 X20.9158 Y21.7162 
G01 X21.1582 Y21.2964 
G01 X21.2836 Y20.8283 
G01 X21.2836 Y20.3437 
G01 X21.1582 Y19.8756 
G01 X20.9158 Y19.4558 
G00 Z2.4000 
G00 X70.8409 Y23.6026 
G01 Z-0.1000 F50.00 
G01 X71.1032 Y23.4940 F100.00 
G01 X71.3040 Y23.2932 
G01 X71.4126 Y23.0309 
G01 X71.4126 Y20.9691 
G01 X71.2847 Y20.6603 
G01 X71.2509 Y20.6097 
G01 X71.2239 Y20.5446 
G01 X71.1898 Y20.4622 
G01 X71.1760 Y20.3933 
G01 X71.1586 Y20.3056 
G01 X71.1586 Y20.2262 
G01 X71.1586 Y20.1460 
G01 X71.1586 Y18.5417 
G01 X70.9533 Y18.0461 
G01 X70.5164 Y17.6092 
G01 X70.4035 Y17.4963 
G01 X66.7878 Y13.8806 
G01 X66.3509 Y13.4437 
G01 X65.8552 Y13.2384 
G01 X13.7322 Y13.2384 
G01 X13.2366 Y13.4437 
G01 X8.4437 Y18.2366 
G01 X8.2384 Y18.7322 
G01 X8.2384 Y27.2678 
G01 X8.4437 Y27.7634 
G01 X11.5536 Y30.8733 
G01 X12.0492 Y31.0786 
G01 X15.3478 Y31.0786 
G01 X15.5044 Y31.1097 
G01 X15.6519 Y31.1708 
G01 X15.7846 Y31.2595 
G01 X15.8975 Y31.3724 
G01 X15.9862 Y31.5051 
G01 X16.0473 Y31.6526 
G01 X16.0784 Y31.8092 
G01 X16.0784 Y32.5619 
G01 X16.3245 Y33.1561 
G01 X16.3842 Y33.3002 
G01 X16.3856 Y33.3036 
G01 X16.4168 Y33.4602 
G01 X16.4168 Y33.6198 
G01 X16.3856 Y33.7764 
G01 X16.3510 Y33.8599 
G01 X16.3245 Y33.9239 
G01 X16.0784 Y34.5181 
G01 X16.0784 Y35.1019 
G01 X16.2394 Y35.4907 
G01 X16.2978 Y35.6315 
G01 X16.3005 Y35.6382 
G01 X16.3317 Y35.7947 
G01 X16.3317 Y35.9544 
G01 X16.3023 Y36.1021 
G01 X16.3005 Y36.1110 
G01 X16.2394 Y36.2584 
G01 X16.1507 Y36.3912 
G01 X16.0379 Y36.5040 
G01 X15.9594 Y36.5565 
G01 X15.9051 Y36.5927 
G01 X15.8070 Y36.6334 
G01 X15.6762 Y36.6875 
G01 X15.2075 Y37.1562 
G01 X14.9539 Y37.7686 
G01 X14.9539 Y38.4314 
G01 X15.2075 Y39.0438 
G01 X15.6762 Y39.5124 
G01 X16.2886 Y39.7661 
G01 X16.8698 Y39.7661 
G01 X16.8963 Y39.7626 
G01 X16.9494 Y39.7661 
G01 X17.0027 Y39.7661 
G01 X17.0289 Y39.7713 
G01 X17.0555 Y39.7731 
G01 X17.1070 Y39.7868 
G01 X17.1593 Y39.7972 
G01 X17.1840 Y39.8075 
G01 X17.2097 Y39.8144 
G01 X17.2575 Y39.8379 
G01 X17.3068 Y39.8583 
G01 X17.3290 Y39.8732 
G01 X17.3529 Y39.8850 
G01 X17.3952 Y39.9174 
G01 X17.4395 Y39.9470 
G01 X17.4584 Y39.9659 
G01 X17.4796 Y39.9822 
G01 X17.5147 Y40.0222 
G01 X17.5524 Y40.0599 
G01 X17.5672 Y40.0821 
G01 X17.5848 Y40.1022 
G01 X17.6115 Y40.1483 
G01 X17.6411 Y40.1926 
G01 X17.6513 Y40.2173 
G01 X17.6646 Y40.2404 
G01 X17.6818 Y40.2909 
G01 X17.7021 Y40.3401 
G01 X17.7074 Y40.3663 
G01 X17.7159 Y40.3916 
G01 X17.7229 Y40.4444 
G01 X17.7333 Y40.4967 
G01 X17.7333 Y40.5234 
G01 X17.7368 Y40.5499 
G01 X17.7333 Y40.6030 
G01 X17.7333 Y40.6563 
G01 X17.7281 Y40.6825 
G01 X17.7263 Y40.7092 
G01 X17.7125 Y40.7606 
G01 X17.7021 Y40.8129 
G01 X17.6919 Y40.8376 
G01 X17.6024 Y41.1717 
G01 X17.6024 Y41.6563 
G01 X17.7278 Y42.1244 
G01 X17.9702 Y42.5442 
G01 X18.3128 Y42.8868 
G01 X18.7326 Y43.1292 
G01 X19.2007 Y43.2546 
G01 X19.6853 Y43.2546 
G01 X20.1534 Y43.1292 
G01 X20.5732 Y42.8868 
G01 X20.9158 Y42.5442 
G01 X21.1582 Y42.1244 
G01 X21.2836 Y41.6563 
G01 X21.2836 Y41.1717 
G01 X21.1582 Y40.7036 
G01 X20.9158 Y40.2838 
G01 X20.5732 Y39.9412 
G01 X20.1534 Y39.6988 
G01 X19.6853 Y39.5734 
G01 X19.2007 Y39.5734 
G01 X19.1501 Y39.5870 
G01 X19.1234 Y39.5887 
G01 X19.0972 Y39.5939 
G01 X19.0439 Y39.5939 
G01 X18.9908 Y39.5974 
G01 X18.9643 Y39.5939 
G01 X18.9376 Y39.5939 
G01 X18.8853 Y39.5835 
G01 X18.8325 Y39.5766 
G01 X18.8072 Y39.5680 
G01 X18.7810 Y39.5628 
G01 X18.7318 Y39.5424 
G01 X18.6814 Y39.5253 
G01 X18.6582 Y39.5119 
G01 X18.6335 Y39.5017 
G01 X18.5893 Y39.4721 
G01 X18.5431 Y39.4454 
G01 X18.5230 Y39.4278 
G01 X18.5008 Y39.4130 
G01 X18.4631 Y39.3753 
G01 X18.4231 Y39.3402 
G01 X18.4068 Y39.3190 
G01 X18.3879 Y39.3001 
G01 X18.3583 Y39.2558 
G01 X18.3259 Y39.2135 
G01 X18.3141 Y39.1896 
G01 X18.2992 Y39.1674 
G01 X18.2789 Y39.1181 
G01 X18.2553 Y39.0704 
G01 X18.2484 Y39.0446 
G01 X18.2382 Y39.0199 
G01 X18.2278 Y38.9677 
G01 X18.2140 Y38.9162 
G01 X18.2122 Y38.8895 
G01 X18.2070 Y38.8633 
G01 X18.2070 Y38.8100 
G01 X18.2035 Y38.7569 
G01 X18.2070 Y38.7304 
G01 X18.2070 Y38.7037 
G01 X18.2174 Y38.6514 
G01 X18.2244 Y38.5986 
G01 X18.2330 Y38.5733 
G01 X18.2382 Y38.5471 
G01 X18.2585 Y38.4979 
G01 X18.2757 Y38.4475 
G01 X18.2861 Y38.4294 
G01 X18.2861 Y37.7686 
G01 X18.1632 Y37.4719 
G01 X18.1389 Y37.4133 
G01 X18.1021 Y37.3244 
G01 X18.0710 Y37.1678 
G01 X18.0710 Y37.0082 
G01 X18.0783 Y36.9715 
G01 X18.1021 Y36.8516 
G01 X18.1212 Y36.8054 
G01 X18.1632 Y36.7041 
G01 X18.2213 Y36.6172 
G01 X18.2519 Y36.5714 
G01 X18.3647 Y36.4585 
G01 X18.4975 Y36.3698 
G01 X18.5377 Y36.3532 
G01 X18.6450 Y36.3087 
G01 X18.8015 Y36.2776 
G01 X19.3459 Y36.2776 
G01 X19.4105 Y36.2508 
G01 X19.5545 Y36.1912 
G01 X19.5580 Y36.1897 
G01 X19.7146 Y36.1586 
G01 X21.9955 Y36.1586 
G01 X22.1521 Y36.1897 
G01 X22.2996 Y36.2508 
G01 X22.4323 Y36.3395 
G01 X22.5452 Y36.4524 
G01 X23.4705 Y37.3777 
G01 X23.5592 Y37.5104 
G01 X23.6203 Y37.6579 
G01 X23.6514 Y37.8145 
G01 X23.6514 Y42.6808 
G01 X23.8567 Y43.1764 
G01 X32.2366 Y51.5563 
G01 X32.7322 Y51.7616 
G01 X34.8418 Y51.7616 
G01 X34.9984 Y51.7927 
G01 X35.1459 Y51.8538 
G01 X35.2786 Y51.9425 
G01 X35.3915 Y52.0554 
G01 X35.4802 Y52.1881 
G01 X35.5413 Y52.3356 
G01 X35.5724 Y52.4922 
G01 X35.5724 Y54.2660 
G01 X35.7806 Y54.7687 
G01 X36.1653 Y55.1534 
G01 X36.6680 Y55.3616 
G01 X37.2120 Y55.3616 
G01 X37.7425 Y55.1419 
G01 X37.7708 Y55.1230 
G01 X37.8261 Y55.0860 
G01 X37.9058 Y55.0530 
G01 X37.9736 Y55.0249 
G01 X38.0306 Y55.0136 
G01 X38.1301 Y54.9938 
G01 X38.2091 Y54.9938 
G01 X38.2898 Y54.9938 
G01 X38.3819 Y55.0121 
G01 X38.4463 Y55.0249 
G01 X38.5407 Y55.0640 
G01 X38.5938 Y55.0860 
G01 X38.6449 Y55.1201 
G01 X38.6775 Y55.1419 
G01 X39.2080 Y55.3616 
G01 X39.7520 Y55.3616 
G01 X40.2547 Y55.1534 
G01 X40.6394 Y54.7687 
G01 X40.8476 Y54.2660 
G01 X40.8476 Y52.3822 
G01 X40.8444 Y52.3661 
G01 X40.8286 Y52.2867 
G01 X40.8286 Y51.0792 
G01 X40.8597 Y50.9226 
G01 X40.9208 Y50.7751 
G01 X41.0095 Y50.6424 
G01 X41.1224 Y50.5295 
G01 X41.2551 Y50.4408 
G01 X41.4026 Y50.3797 
G01 X41.5592 Y50.3486 
G01 X44.1855 Y50.3486 
G01 X44.3421 Y50.3797 
G01 X44.4896 Y50.4408 
G01 X44.6223 Y50.5295 
G01 X44.7352 Y50.6424 
G01 X45.5705 Y51.4777 
G01 X45.6592 Y51.6104 
G01 X45.7203 Y51.7579 
G01 X45.7514 Y51.9145 
G01 X45.7514 Y52.2867 
G01 X45.7362 Y52.3632 
G01 X45.7324 Y52.3822 
G01 X45.7324 Y54.2660 
G01 X45.9406 Y54.7687 
G01 X46.3253 Y55.1534 
G01 X46.8280 Y55.3616 
G01 X47.3720 Y55.3616 
G01 X47.8747 Y55.1534 
G01 X48.2594 Y54.7687 
G01 X48.4676 Y54.2660 
G01 X48.4676 Y52.3822 
G01 X48.4644 Y52.3661 
G01 X48.4486 Y52.2867 
G01 X48.4486 Y50.8317 
G01 X48.2433 Y50.3361 
G01 X47.6935 Y49.7863 
G01 X45.7639 Y47.8567 
G01 X45.2683 Y47.6514 
G01 X42.2270 Y47.6514 
G01 X42.0704 Y47.6203 
G01 X41.9229 Y47.5592 
G01 X41.7902 Y47.4705 
G01 X41.6773 Y47.3576 
G01 X38.7634 Y44.4437 
G01 X38.2677 Y44.2384 
G01 X35.8140 Y44.2384 
G01 X35.6574 Y44.2073 
G01 X35.5099 Y44.1462 
G01 X35.3772 Y44.0575 
G01 X32.5295 Y41.2098 
G01 X32.4408 Y41.0771 
G01 X32.3797 Y40.9296 
G01 X32.3486 Y40.7730 
G01 X32.3486 Y33.7317 
G01 X32.1433 Y33.2361 
G01 X31.5935 Y32.6863 
G01 X27.4939 Y28.5867 
G01 X26.9983 Y28.3814 
G01 X20.7060 Y28.3814 
G01 X20.6795 Y28.3849 
G01 X20.6263 Y28.3814 
G01 X20.5730 Y28.3814 
G01 X20.5468 Y28.3762 
G01 X20.5202 Y28.3744 
G01 X20.4687 Y28.3606 
G01 X20.4165 Y28.3503 
G01 X20.3918 Y28.3400 
G01 X20.3660 Y28.3331 
G01 X20.3182 Y28.3096 
G01 X20.2690 Y28.2892 
G01 X20.2468 Y28.2743 
G01 X20.2228 Y28.2625 
G01 X20.1806 Y28.2301 
G01 X20.1363 Y28.2005 
G01 X20.1174 Y28.1816 
G01 X20.0962 Y28.1653 
G01 X20.0610 Y28.1253 
G01 X20.0234 Y28.0876 
G01 X20.0086 Y28.0654 
G01 X19.9909 Y28.0453 
G01 X19.9650 Y28.0004 
G01 X19.5140 Y28.0004 
G01 X19.4942 Y28.0136 
G01 X19.3251 Y28.0837 
G01 X19.1455 Y28.1194 
G01 X17.4545 Y28.1194 
G01 X17.2749 Y28.0837 
G01 X17.1058 Y28.0136 
G01 X17.0860 Y28.0004 
G01 X16.6350 Y28.0004 
G01 X16.6091 Y28.0453 
G01 X16.5914 Y28.0654 
G01 X16.5766 Y28.0876 
G01 X16.5389 Y28.1253 
G01 X16.5038 Y28.1653 
G01 X16.4826 Y28.1816 
G01 X16.4637 Y28.2005 
G01 X16.4194 Y28.2301 
G01 X16.3772 Y28.2625 
G01 X16.3532 Y28.2743 
G01 X16.3310 Y28.2892 
G01 X16.2818 Y28.3096 
G01 X16.2340 Y28.3331 
G01 X16.2082 Y28.3400 
G01 X16.1835 Y28.3503 
G01 X16.1313 Y28.3606 
G01 X16.0798 Y28.3744 
G01 X16.0532 Y28.3762 
G01 X16.0269 Y28.3814 
G01 X15.9736 Y28.3814 
G01 X15.9205 Y28.3849 
G01 X15.8940 Y28.3814 
G01 X13.1320 Y28.3814 
G01 X12.9754 Y28.3503 
G01 X12.8279 Y28.2892 
G01 X12.6952 Y28.2005 
G01 X12.5823 Y28.0876 
G01 X11.1165 Y26.6218 
G01 X11.0278 Y26.4891 
G01 X10.9667 Y26.3416 
G01 X10.9356 Y26.1850 
G01 X10.9356 Y19.8150 
G01 X10.9667 Y19.6584 
G01 X11.0278 Y19.5109 
G01 X11.1165 Y19.3782 
G01 X11.2294 Y19.2653 
G01 X14.3782 Y16.1165 
G01 X14.5109 Y16.0278 
G01 X14.6584 Y15.9667 
G01 X14.8150 Y15.9356 
G01 X64.7725 Y15.9356 
G01 X64.9291 Y15.9667 
G01 X65.0766 Y16.0278 
G01 X65.2093 Y16.1165 
G01 X65.3222 Y16.2294 
G01 X68.1632 Y19.0704 
G01 X68.2519 Y19.2031 
G01 X68.3130 Y19.3506 
G01 X68.3441 Y19.5072 
G01 X68.3441 Y19.6668 
G01 X68.3130 Y19.8234 
G01 X68.2519 Y19.9709 
G01 X68.1632 Y20.1036 
G01 X68.0503 Y20.2165 
G01 X67.9176 Y20.3052 
G01 X67.7701 Y20.3663 
G01 X67.6135 Y20.3974 
G01 X66.6062 Y20.3974 
G01 X66.5166 Y20.4870 
G01 X66.4743 Y20.5152 
G01 X66.3839 Y20.5757 
G01 X66.2766 Y20.6201 
G01 X66.2364 Y20.6368 
G01 X66.1209 Y20.6597 
G01 X66.0798 Y20.6679 
G01 X65.9202 Y20.6679 
G01 X65.7636 Y20.6368 
G01 X65.6623 Y20.5948 
G01 X65.6161 Y20.5757 
G01 X65.5519 Y20.5328 
G01 X65.4834 Y20.4870 
G01 X65.3938 Y20.3974 
G01 X64.0662 Y20.3974 
G01 X63.5276 Y20.9360 
G01 X63.4371 Y20.9964 
G01 X63.3949 Y21.0247 
G01 X63.2504 Y21.0845 
G01 X63.2474 Y21.0858 
G01 X63.0908 Y21.1169 
G01 X63.0004 Y21.1169 
G01 X63.0004 Y21.3051 
G01 X63.2544 Y21.5591 
G01 X63.2544 Y22.4409 
G01 X63.0004 Y22.6949 
G01 X63.0004 Y23.0903 
G01 X63.0876 Y23.1485 
G01 X63.2005 Y23.2614 
G01 X63.2892 Y23.3941 
G01 X63.3503 Y23.5416 
G01 X63.3814 Y23.6982 
G01 X63.3814 Y25.4555 
G01 X63.3503 Y25.6121 
G01 X63.2892 Y25.7596 
G01 X63.2005 Y25.8923 
G01 X63.0876 Y26.0052 
G01 X61.6223 Y27.4705 
G01 X61.4896 Y27.5592 
G01 X61.3421 Y27.6203 
G01 X61.1855 Y27.6514 
G01 X55.7317 Y27.6514 
G01 X55.2361 Y27.8567 
G01 X51.4736 Y31.6192 
G01 X51.0367 Y32.0561 
G01 X50.8314 Y32.5517 
G01 X50.8314 Y36.8871 
G01 X50.8314 Y36.9660 
G01 X50.8314 Y37.0467 
G01 X50.8124 Y37.1422 
G01 X50.8124 Y39.0260 
G01 X51.0206 Y39.5287 
G01 X51.4053 Y39.9134 
G01 X51.9080 Y40.1216 
G01 X52.4520 Y40.1216 
G01 X52.9547 Y39.9134 
G01 X53.3394 Y39.5287 
G01 X53.5476 Y39.0260 
G01 X53.5476 Y37.1422 
G01 X53.5286 Y37.0467 
G01 X53.5286 Y36.9678 
G01 X53.5286 Y36.8871 
G01 X53.5286 Y33.6345 
G01 X53.5597 Y33.4779 
G01 X53.6208 Y33.3304 
G01 X53.7095 Y33.1977 
G01 X53.8224 Y33.0848 
G01 X56.3777 Y30.5295 
G01 X56.5104 Y30.4408 
G01 X56.6579 Y30.3797 
G01 X56.8145 Y30.3486 
G01 X62.2683 Y30.3486 
G01 X62.7639 Y30.1433 
G01 X65.8733 Y27.0339 
G01 X66.0786 Y26.5383 
G01 X66.0786 Y24.3332 
G01 X66.1097 Y24.1766 
G01 X66.1708 Y24.0291 
G01 X66.2595 Y23.8964 
G01 X66.3724 Y23.7835 
G01 X66.5051 Y23.6948 
G01 X66.6526 Y23.6337 
G01 X66.8092 Y23.6026 
G01 X67.9730 Y23.6026 
G01 X67.9877 Y23.5928 
G01 X68.1351 Y23.5317 
G01 X68.2917 Y23.5006 
G01 X68.4514 Y23.5006 
G01 X68.6079 Y23.5317 
G01 X68.7791 Y23.6026 
G01 X70.8409 Y23.6026 
G00 Z2.4000 
G00 X53.0094 Y37.3643 
G01 Z-0.1000 F50.00 
G01 X53.0094 Y38.8357 F100.00 
G01 X52.9775 Y38.9959 
G01 X52.9150 Y39.1469 
G01 X52.8242 Y39.2827 
G01 X52.7087 Y39.3982 
G01 X52.5729 Y39.4890 
G01 X52.4219 Y39.5515 
G01 X52.2617 Y39.5834 
G01 X52.0983 Y39.5834 
G01 X51.9381 Y39.5515 
G01 X51.7871 Y39.4890 
G01 X51.6513 Y39.3982 
G01 X51.5358 Y39.2827 
G01 X51.4450 Y39.1469 
G01 X51.3825 Y38.9959 
G01 X51.3506 Y38.8357 
G01 X51.3506 Y37.3643 
G01 X51.3696 Y37.2688 
G01 X51.3696 Y32.7402 
G01 X51.4007 Y32.5836 
G01 X51.4618 Y32.4361 
G01 X51.5505 Y32.3034 
G01 X51.6634 Y32.1905 
G01 X55.3705 Y28.4834 
G01 X55.4834 Y28.3705 
G01 X55.6161 Y28.2818 
G01 X55.7636 Y28.2207 
G01 X55.9202 Y28.1896 
G01 X61.6643 Y28.1896 
G01 X63.9196 Y25.9343 
G01 X63.9196 Y22.6949 
G01 X63.6656 Y22.4409 
G01 X63.6656 Y21.5591 
G01 X64.2891 Y20.9356 
G01 X65.1709 Y20.9356 
G01 X65.7944 Y21.5591 
G01 X65.7944 Y22.4409 
G01 X65.5404 Y22.6949 
G01 X65.5404 Y26.3498 
G01 X65.5093 Y26.5064 
G01 X65.4482 Y26.6539 
G01 X65.3595 Y26.7866 
G01 X65.2466 Y26.8995 
G01 X62.6295 Y29.5166 
G01 X62.5166 Y29.6295 
G01 X62.3839 Y29.7182 
G01 X62.2364 Y29.7793 
G01 X62.0798 Y29.8104 
G01 X56.3357 Y29.8104 
G01 X52.9904 Y33.1557 
G01 X52.9904 Y37.2688 
G01 X53.0094 Y37.3643 
G00 Z2.4000 
G00 X37.7694 Y52.6043 
G01 Z-0.1000 F50.00 
G01 X37.7694 Y54.0757 F100.00 
G01 X37.7375 Y54.2359 
G01 X37.6750 Y54.3869 
G01 X37.5842 Y54.5227 
G01 X37.4687 Y54.6382 
G01 X37.3329 Y54.7290 
G01 X37.1819 Y54.7915 
G01 X37.0217 Y54.8234 
G01 X36.8583 Y54.8234 
G01 X36.6981 Y54.7915 
G01 X36.5471 Y54.7290 
G01 X36.4113 Y54.6382 
G01 X36.2958 Y54.5227 
G01 X36.2050 Y54.3869 
G01 X36.1425 Y54.2359 
G01 X36.1106 Y54.0757 
G01 X36.1106 Y52.6043 
G01 X36.1296 Y52.5088 
G01 X36.1296 Y51.6882 
G01 X35.6648 Y51.2234 
G01 X32.9207 Y51.2234 
G01 X32.7641 Y51.1923 
G01 X32.6166 Y51.1312 
G01 X32.4839 Y51.0425 
G01 X24.3705 Y42.9291 
G01 X24.2818 Y42.7964 
G01 X24.2207 Y42.6489 
G01 X24.1896 Y42.4923 
G01 X24.1896 Y37.3357 
G01 X22.4743 Y35.6204 
G01 X19.5140 Y35.6204 
G01 X19.4942 Y35.6336 
G01 X19.3251 Y35.7037 
G01 X19.1455 Y35.7394 
G01 X17.4545 Y35.7394 
G01 X17.2749 Y35.7037 
G01 X17.1058 Y35.6336 
G01 X16.9535 Y35.5319 
G01 X16.8241 Y35.4025 
G01 X16.7224 Y35.2502 
G01 X16.6523 Y35.0811 
G01 X16.6166 Y34.9015 
G01 X16.6166 Y34.7185 
G01 X16.6523 Y34.5389 
G01 X16.7224 Y34.3698 
G01 X16.8241 Y34.2175 
G01 X16.9535 Y34.0881 
G01 X17.1058 Y33.9864 
G01 X17.2749 Y33.9163 
G01 X17.4545 Y33.8806 
G01 X19.1455 Y33.8806 
G01 X19.3251 Y33.9163 
G01 X19.4942 Y33.9864 
G01 X19.5140 Y33.9996 
G01 X22.8898 Y33.9996 
G01 X23.0464 Y34.0307 
G01 X23.1939 Y34.0918 
G01 X23.3266 Y34.1805 
G01 X23.4395 Y34.2934 
G01 X25.6295 Y36.4834 
G01 X25.7182 Y36.6161 
G01 X25.7793 Y36.7636 
G01 X25.8104 Y36.9202 
G01 X25.8104 Y42.0768 
G01 X33.3362 Y49.6026 
G01 X36.0803 Y49.6026 
G01 X36.2369 Y49.6337 
G01 X36.3844 Y49.6948 
G01 X36.5171 Y49.7835 
G01 X37.5695 Y50.8359 
G01 X37.6582 Y50.9686 
G01 X37.7193 Y51.1161 
G01 X37.7504 Y51.2727 
G01 X37.7504 Y52.5088 
G01 X37.7694 Y52.6043 
G00 Z2.4000 
G00 X68.3344 Y21.5591 
G01 Z-0.1000 F50.00 
G01 X68.3344 Y22.4409 F100.00 
G01 X67.7109 Y23.0644 
G01 X66.8291 Y23.0644 
G01 X66.2056 Y22.4409 
G01 X66.2056 Y21.5591 
G01 X66.8291 Y20.9356 
G01 X67.7109 Y20.9356 
G01 X68.3344 Y21.5591 
G00 Z2.4000 
G00 X68.8861 Y20.9356 
G01 Z-0.1000 F50.00 
G01 X68.9996 Y20.9356 F100.00 
G01 X68.9996 Y19.1457 
G01 X65.2513 Y15.3974 
G01 X14.3362 Y15.3974 
G01 X10.3974 Y19.3362 
G01 X10.3974 Y26.6638 
G01 X12.6532 Y28.9196 
G01 X17.0860 Y28.9196 
G01 X17.1058 Y28.9064 
G01 X17.2749 Y28.8363 
G01 X17.4545 Y28.8006 
G01 X19.1455 Y28.8006 
G01 X19.3251 Y28.8363 
G01 X19.4942 Y28.9064 
G01 X19.5140 Y28.9196 
G01 X26.8098 Y28.9196 
G01 X26.9664 Y28.9507 
G01 X27.1139 Y29.0118 
G01 X27.2466 Y29.1005 
G01 X31.5166 Y33.3705 
G01 X31.6295 Y33.4834 
G01 X31.7182 Y33.6161 
G01 X31.7793 Y33.7636 
G01 X31.8104 Y33.9202 
G01 X31.8104 Y41.2518 
G01 X35.3352 Y44.7766 
G01 X38.0793 Y44.7766 
G01 X38.2359 Y44.8077 
G01 X38.3834 Y44.8688 
G01 X38.5161 Y44.9575 
G01 X41.7482 Y48.1896 
G01 X45.0798 Y48.1896 
G01 X45.2364 Y48.2207 
G01 X45.3839 Y48.2818 
G01 X45.5166 Y48.3705 
G01 X47.6166 Y50.4705 
G01 X47.7295 Y50.5834 
G01 X47.8182 Y50.7161 
G01 X47.8793 Y50.8636 
G01 X47.9104 Y51.0202 
G01 X47.9104 Y52.5088 
G01 X47.9294 Y52.6043 
G01 X47.9294 Y54.0757 
G01 X47.8975 Y54.2359 
G01 X47.8350 Y54.3869 
G01 X47.7442 Y54.5227 
G01 X47.6287 Y54.6382 
G01 X47.4929 Y54.7290 
G01 X47.3419 Y54.7915 
G01 X47.1817 Y54.8234 
G01 X47.0183 Y54.8234 
G01 X46.8581 Y54.7915 
G01 X46.7071 Y54.7290 
G01 X46.5713 Y54.6382 
G01 X46.4558 Y54.5227 
G01 X46.3650 Y54.3869 
G01 X46.3025 Y54.2359 
G01 X46.2706 Y54.0757 
G01 X46.2706 Y52.6043 
G01 X46.2896 Y52.5088 
G01 X46.2896 Y51.4357 
G01 X44.6643 Y49.8104 
G01 X41.3327 Y49.8104 
G01 X41.1761 Y49.7793 
G01 X41.0286 Y49.7182 
G01 X40.8959 Y49.6295 
G01 X37.6638 Y46.3974 
G01 X34.9197 Y46.3974 
G01 X34.7631 Y46.3663 
G01 X34.6156 Y46.3052 
G01 X34.4829 Y46.2165 
G01 X30.4834 Y42.2170 
G01 X30.3705 Y42.1041 
G01 X30.2818 Y41.9714 
G01 X30.2207 Y41.8239 
G01 X30.1896 Y41.6673 
G01 X30.1896 Y34.3357 
G01 X26.3943 Y30.5404 
G01 X19.5140 Y30.5404 
G01 X19.4942 Y30.5536 
G01 X19.3251 Y30.6237 
G01 X19.1455 Y30.6594 
G01 X17.4545 Y30.6594 
G01 X17.2749 Y30.6237 
G01 X17.1058 Y30.5536 
G01 X17.0860 Y30.5404 
G01 X12.2377 Y30.5404 
G01 X12.0811 Y30.5093 
G01 X11.9336 Y30.4482 
G01 X11.8009 Y30.3595 
G01 X11.6880 Y30.2466 
G01 X8.9575 Y27.5161 
G01 X8.8688 Y27.3834 
G01 X8.8077 Y27.2359 
G01 X8.7766 Y27.0793 
G01 X8.7766 Y18.9207 
G01 X8.8077 Y18.7641 
G01 X8.8688 Y18.6166 
G01 X8.9575 Y18.4839 
G01 X13.3710 Y14.0704 
G01 X13.4839 Y13.9575 
G01 X13.6166 Y13.8688 
G01 X13.7641 Y13.8077 
G01 X13.9207 Y13.7766 
G01 X65.6668 Y13.7766 
G01 X65.8234 Y13.8077 
G01 X65.9709 Y13.8688 
G01 X66.1036 Y13.9575 
G01 X66.2165 Y14.0704 
G01 X70.4395 Y18.2934 
G01 X70.5282 Y18.4261 
G01 X70.5893 Y18.5736 
G01 X70.6204 Y18.7302 
G01 X70.6204 Y20.9356 
G01 X70.7339 Y20.9356 
G01 X70.7984 Y20.9623 
G01 X70.8477 Y21.0116 
G01 X70.8744 Y21.0761 
G01 X70.8744 Y22.9239 
G01 X70.8477 Y22.9884 
G01 X70.7984 Y23.0377 
G01 X70.7339 Y23.0644 
G01 X68.8861 Y23.0644 
G01 X68.8216 Y23.0377 
G01 X68.7723 Y22.9884 
G01 X68.7456 Y22.9239 
G01 X68.7456 Y21.0761 
G01 X68.7723 Y21.0116 
G01 X68.8216 Y20.9623 
G01 X68.8861 Y20.9356 
G00 Z2.4000 
G00 X17.4545 Y31.3406 
G01 Z-0.1000 F50.00 
G01 X19.1455 Y31.3406 F100.00 
G01 X19.3251 Y31.3763 
G01 X19.4942 Y31.4464 
G01 X19.5140 Y31.4596 
G01 X26.2965 Y31.4596 
G01 X26.4531 Y31.4907 
G01 X26.6006 Y31.5518 
G01 X26.7333 Y31.6405 
G01 X28.6295 Y33.5367 
G01 X28.7182 Y33.6694 
G01 X28.7793 Y33.8169 
G01 X28.8104 Y33.9735 
G01 X28.8104 Y41.6643 
G01 X34.3357 Y47.1896 
G01 X37.0798 Y47.1896 
G01 X37.2364 Y47.2207 
G01 X37.3839 Y47.2818 
G01 X37.5166 Y47.3705 
G01 X39.9966 Y49.8505 
G01 X40.1095 Y49.9634 
G01 X40.1982 Y50.0961 
G01 X40.2593 Y50.2436 
G01 X40.2904 Y50.4002 
G01 X40.2904 Y52.5088 
G01 X40.3094 Y52.6043 
G01 X40.3094 Y54.0757 
G01 X40.2775 Y54.2359 
G01 X40.2150 Y54.3869 
G01 X40.1242 Y54.5227 
G01 X40.0087 Y54.6382 
G01 X39.8729 Y54.7290 
G01 X39.7219 Y54.7915 
G01 X39.5617 Y54.8234 
G01 X39.3983 Y54.8234 
G01 X39.2381 Y54.7915 
G01 X39.0871 Y54.7290 
G01 X38.9513 Y54.6382 
G01 X38.8358 Y54.5227 
G01 X38.7450 Y54.3869 
G01 X38.6825 Y54.2359 
G01 X38.6506 Y54.0757 
G01 X38.6506 Y52.6043 
G01 X38.6696 Y52.5088 
G01 X38.6696 Y50.8157 
G01 X36.6643 Y48.8104 
G01 X33.9202 Y48.8104 
G01 X33.7636 Y48.7793 
G01 X33.6161 Y48.7182 
G01 X33.4834 Y48.6295 
G01 X33.3705 Y48.5166 
G01 X27.4834 Y42.6295 
G01 X27.3705 Y42.5166 
G01 X27.2818 Y42.3839 
G01 X27.2207 Y42.2364 
G01 X27.1896 Y42.0798 
G01 X27.1896 Y34.3890 
G01 X25.8810 Y33.0804 
G01 X19.5140 Y33.0804 
G01 X19.4942 Y33.0936 
G01 X19.3251 Y33.1637 
G01 X19.1455 Y33.1994 
G01 X17.4545 Y33.1994 
G01 X17.2749 Y33.1637 
G01 X17.1058 Y33.0936 
G01 X16.9535 Y32.9919 
G01 X16.8241 Y32.8625 
G01 X16.7224 Y32.7102 
G01 X16.6523 Y32.5411 
G01 X16.6166 Y32.3615 
G01 X16.6166 Y32.1785 
G01 X16.6523 Y31.9989 
G01 X16.7224 Y31.8298 
G01 X16.8241 Y31.6775 
G01 X16.9535 Y31.5481 
G01 X17.1058 Y31.4464 
G01 X17.2749 Y31.3763 
G01 X17.4545 Y31.3406 
G00 Z2.4000 
G00 X5.2020 Y51.9844 
G01 Z-0.1000 F50.00 
G01 X4.7980 Y51.9844 F100.00 
G01 X4.4247 Y52.1390 
G01 X4.1390 Y52.4247 
G01 X3.9844 Y52.7980 
G01 X3.9844 Y53.2020 
G01 X4.1390 Y53.5753 
G01 X4.4247 Y53.8610 
G01 X4.7980 Y54.0156 
G01 X5.2020 Y54.0156 
G01 X5.5753 Y53.8610 
G01 X5.8610 Y53.5753 
G01 X6.0156 Y53.2020 
G01 X6.0156 Y52.7980 
G01 X5.8610 Y52.4247 
G01 X5.5753 Y52.1390 
G01 X5.2020 Y51.9844 
G00 Z2.4000 
G00 X44.0298 Y40.2838 
G01 Z-0.1000 F50.00 
G01 X43.6872 Y39.9412 F100.00 
G01 X43.2674 Y39.6988 
G01 X42.7993 Y39.5734 
G01 X42.3147 Y39.5734 
G01 X41.8466 Y39.6988 
G01 X41.4268 Y39.9412 
G01 X41.0842 Y40.2838 
G01 X40.8418 Y40.7036 
G01 X40.7164 Y41.1717 
G01 X40.7164 Y41.6563 
G01 X40.8418 Y42.1244 
G01 X41.0842 Y42.5442 
G01 X41.4268 Y42.8868 
G01 X41.8466 Y43.1292 
G01 X42.3147 Y43.2546 
G01 X42.7993 Y43.2546 
G01 X43.2674 Y43.1292 
G01 X43.6872 Y42.8868 
G01 X44.0298 Y42.5442 
G01 X44.2722 Y42.1244 
G01 X44.3976 Y41.6563 
G01 X44.3976 Y41.1717 
G01 X44.2722 Y40.7036 
G01 X44.0298 Y40.2838 
G00 Z2.4000 
G00 X44.0298 Y19.4558 
G01 Z-0.1000 F50.00 
G01 X43.6872 Y19.1132 F100.00 
G01 X43.2674 Y18.8708 
G01 X42.7993 Y18.7454 
G01 X42.3147 Y18.7454 
G01 X41.8466 Y18.8708 
G01 X41.4268 Y19.1132 
G01 X41.0842 Y19.4558 
G01 X40.8418 Y19.8756 
G01 X40.7164 Y20.3437 
G01 X40.7164 Y20.8283 
G01 X40.8418 Y21.2964 
G01 X41.0842 Y21.7162 
G01 X41.4268 Y22.0588 
G01 X41.8466 Y22.3012 
G01 X42.3147 Y22.4266 
G01 X42.7993 Y22.4266 
G01 X43.2674 Y22.3012 
G01 X43.6872 Y22.0588 
G01 X44.0298 Y21.7162 
G01 X44.2722 Y21.2964 
G01 X44.3976 Y20.8283 
G01 X44.3976 Y20.3437 
G01 X44.2722 Y19.8756 
G01 X44.0298 Y19.4558 
G00 Z2.4000 
G00 X74.2020 Y51.9844 
G01 Z-0.1000 F50.00 
G01 X73.7980 Y51.9844 F100.00 
G01 X73.4247 Y52.1390 
G01 X73.1390 Y52.4247 
G01 X72.9844 Y52.7980 
G01 X72.9844 Y53.2020 
G01 X73.1390 Y53.5753 
G01 X73.4247 Y53.8610 
G01 X73.7980 Y54.0156 
G01 X74.2020 Y54.0156 
G01 X74.5753 Y53.8610 
G01 X74.8610 Y53.5753 
G01 X75.0156 Y53.2020 
G01 X75.0156 Y52.7980 
G01 X74.8610 Y52.4247 
G01 X74.5753 Y52.1390 
G01 X74.2020 Y51.9844 
G00 Z2.4000 
G00 X17.5638 Y51.9275 
G01 Z-0.1000 F50.00 
G01 X16.9514 Y51.6739 F100.00 
G01 X16.2886 Y51.6739 
G01 X15.6762 Y51.9275 
G01 X15.2075 Y52.3962 
G01 X14.9539 Y53.0086 
G01 X14.9539 Y53.6714 
G01 X15.2075 Y54.2838 
G01 X15.6762 Y54.7524 
G01 X16.2886 Y55.0061 
G01 X16.9514 Y55.0061 
G01 X17.5638 Y54.7524 
G01 X18.0324 Y54.2838 
G01 X18.2861 Y53.6714 
G01 X18.2861 Y53.0086 
G01 X18.0325 Y52.3962 
G01 X17.5638 Y51.9275 
G00 Z2.4000 
G00 X62.3777 Y35.6488 
G01 Z-0.1000 F50.00 
G01 X62.5104 Y35.5601 F100.00 
G01 X62.6579 Y35.4990 
G01 X62.8145 Y35.4678 
G01 X70.9128 Y35.4678 
G01 X71.0694 Y35.4990 
G01 X71.2169 Y35.5601 
G01 X71.3496 Y35.6488 
G01 X71.4625 Y35.7616 
G01 X71.5512 Y35.8944 
G01 X71.6123 Y36.0419 
G01 X71.6434 Y36.1984 
G01 X71.6434 Y37.8018 
G01 X71.6123 Y37.9584 
G01 X71.5512 Y38.1059 
G01 X71.4625 Y38.2386 
G01 X71.3496 Y38.3515 
G01 X71.2169 Y38.4402 
G01 X71.0694 Y38.5013 
G01 X70.9128 Y38.5324 
G01 X68.9541 Y38.5324 
G01 X68.4147 Y38.7558 
G01 X68.0166 Y39.1539 
G01 X67.9261 Y39.2143 
G01 X67.8839 Y39.2426 
G01 X67.7992 Y39.2776 
G01 X67.7364 Y39.3037 
G01 X67.5798 Y39.3348 
G01 X67.4202 Y39.3348 
G01 X67.4113 Y39.3331 
G01 X67.2636 Y39.3037 
G01 X67.1204 Y39.2444 
G01 X67.1161 Y39.2426 
G01 X66.9834 Y39.1539 
G01 X66.8705 Y39.0410 
G01 X66.5853 Y38.7558 
G01 X66.0459 Y38.5324 
G01 X63.9541 Y38.5324 
G01 X63.4147 Y38.7558 
G01 X63.0018 Y39.1687 
G01 X62.8772 Y39.4696 
G01 X62.8485 Y39.5125 
G01 X62.7885 Y39.6024 
G01 X62.6756 Y39.7152 
G01 X62.5429 Y39.8039 
G01 X62.4735 Y39.8327 
G01 X62.3954 Y39.8650 
G01 X62.2759 Y39.8888 
G01 X62.2950 Y39.8926 
G01 X62.3801 Y39.9278 
G01 X62.4425 Y39.9537 
G01 X62.5752 Y40.0424 
G01 X62.6881 Y40.1552 
G01 X62.7304 Y40.2185 
G01 X62.7768 Y40.2880 
G01 X62.8147 Y40.3796 
G01 X62.8379 Y40.4355 
G01 X63.0018 Y40.8313 
G01 X63.4147 Y41.2442 
G01 X63.9541 Y41.4676 
G01 X66.0459 Y41.4676 
G01 X66.5853 Y41.2442 
G01 X66.8705 Y40.9590 
G01 X66.9834 Y40.8461 
G01 X67.1144 Y40.7586 
G01 X67.2636 Y40.6963 
G01 X67.4202 Y40.6652 
G01 X67.5798 Y40.6652 
G01 X67.7364 Y40.6963 
G01 X67.7957 Y40.7209 
G01 X67.8839 Y40.7574 
G01 X67.9297 Y40.7880 
G01 X68.0166 Y40.8461 
G01 X68.4147 Y41.2442 
G01 X68.9541 Y41.4676 
G01 X71.0459 Y41.4676 
G01 X71.1105 Y41.4408 
G01 X71.2545 Y41.3812 
G01 X71.2580 Y41.3797 
G01 X71.4146 Y41.3486 
G01 X72.2683 Y41.3486 
G01 X72.6572 Y41.1875 
G01 X72.7153 Y41.1634 
G01 X72.8047 Y41.1264 
G01 X72.9612 Y41.0953 
G01 X73.1209 Y41.0953 
G01 X73.2774 Y41.1264 
G01 X73.4249 Y41.1875 
G01 X73.5055 Y41.2414 
G01 X73.5576 Y41.2762 
G01 X73.6688 Y41.3873 
G01 X73.7592 Y41.5218 
G01 X73.8203 Y41.6693 
G01 X73.8514 Y41.8258 
G01 X73.8514 Y41.9855 
G01 X73.8203 Y42.1421 
G01 X73.7592 Y42.2895 
G01 X73.7053 Y42.3702 
G01 X73.6705 Y42.4223 
G01 X73.5702 Y42.5226 
G01 X73.5576 Y42.5351 
G01 X72.6223 Y43.4705 
G01 X72.4896 Y43.5592 
G01 X72.4853 Y43.5609 
G01 X72.3421 Y43.6203 
G01 X72.1944 Y43.6496 
G01 X72.1855 Y43.6514 
G01 X71.4146 Y43.6514 
G01 X71.2669 Y43.6220 
G01 X71.2580 Y43.6203 
G01 X71.1105 Y43.5592 
G01 X71.0459 Y43.5324 
G01 X68.9541 Y43.5324 
G01 X68.4147 Y43.7558 
G01 X68.0166 Y44.1539 
G01 X67.9261 Y44.2143 
G01 X67.8839 Y44.2426 
G01 X67.7992 Y44.2776 
G01 X67.7364 Y44.3037 
G01 X67.5798 Y44.3348 
G01 X67.4202 Y44.3348 
G01 X67.4113 Y44.3331 
G01 X67.2636 Y44.3037 
G01 X67.1204 Y44.2444 
G01 X67.1161 Y44.2426 
G01 X66.9834 Y44.1539 
G01 X66.8705 Y44.0410 
G01 X66.5853 Y43.7558 
G01 X66.0459 Y43.5324 
G01 X63.9541 Y43.5324 
G01 X63.4147 Y43.7558 
G01 X63.0018 Y44.1687 
G01 X62.7784 Y44.7081 
G01 X62.7784 Y45.2919 
G01 X63.0018 Y45.8313 
G01 X63.4147 Y46.2442 
G01 X63.9541 Y46.4676 
G01 X66.0459 Y46.4676 
G01 X66.5853 Y46.2442 
G01 X66.8705 Y45.9590 
G01 X66.9834 Y45.8461 
G01 X67.1144 Y45.7586 
G01 X67.2636 Y45.6963 
G01 X67.4202 Y45.6652 
G01 X67.5798 Y45.6652 
G01 X67.7364 Y45.6963 
G01 X67.7957 Y45.7209 
G01 X67.8839 Y45.7574 
G01 X67.9297 Y45.7880 
G01 X68.0166 Y45.8461 
G01 X68.4147 Y46.2442 
G01 X68.9541 Y46.4676 
G01 X71.0459 Y46.4676 
G01 X71.1105 Y46.4408 
G01 X71.2545 Y46.3812 
G01 X71.2580 Y46.3797 
G01 X71.4146 Y46.3486 
G01 X73.2683 Y46.3486 
G01 X73.7639 Y46.1433 
G01 X76.7064 Y43.2008 
G01 X77.1433 Y42.7639 
G01 X77.2497 Y42.5069 
G01 X77.3108 Y42.3594 
G01 X77.3611 Y42.2842 
G01 X77.3995 Y42.2267 
G01 X77.5124 Y42.1138 
G01 X77.6451 Y42.0251 
G01 X77.7322 Y41.9890 
G01 X77.7926 Y41.9640 
G01 X77.9492 Y41.9329 
G01 X78.1088 Y41.9329 
G01 X78.2248 Y41.9560 
G01 X78.2654 Y41.9640 
G01 X78.4129 Y42.0251 
G01 X78.4881 Y42.0754 
G01 X78.5456 Y42.1138 
G01 X78.6585 Y42.2267 
G01 X78.7472 Y42.3594 
G01 X78.7832 Y42.4465 
G01 X78.8083 Y42.5069 
G01 X78.8394 Y42.6635 
G01 X78.8394 Y56.2988 
G01 X78.8083 Y56.4554 
G01 X78.7472 Y56.6029 
G01 X78.6585 Y56.7356 
G01 X78.5456 Y56.8485 
G01 X78.4129 Y56.9372 
G01 X78.2654 Y56.9983 
G01 X78.1088 Y57.0294 
G01 X1.5712 Y57.0294 
G01 X1.4146 Y56.9983 
G01 X1.2671 Y56.9372 
G01 X1.1344 Y56.8485 
G01 X1.0215 Y56.7356 
G01 X0.9328 Y56.6029 
G01 X0.8717 Y56.4554 
G01 X0.8406 Y56.2988 
G01 X0.8406 Y1.5712 
G01 X0.8717 Y1.4146 
G01 X0.9328 Y1.2671 
G01 X1.0215 Y1.1344 
G01 X1.1344 Y1.0215 
G01 X1.2671 Y0.9328 
G01 X1.4146 Y0.8717 
G01 X1.5712 Y0.8406 
G01 X78.1088 Y0.8406 
G01 X78.2654 Y0.8717 
G01 X78.4129 Y0.9328 
G01 X78.5456 Y1.0215 
G01 X78.6585 Y1.1344 
G01 X78.7472 Y1.2671 
G01 X78.8083 Y1.4146 
G01 X78.8394 Y1.5712 
G01 X78.8394 Y30.7655 
G01 X78.8100 Y30.9132 
G01 X78.8083 Y30.9221 
G01 X78.7472 Y31.0696 
G01 X78.7166 Y31.1154 
G01 X78.6585 Y31.2023 
G01 X78.5456 Y31.3152 
G01 X78.4146 Y31.4027 
G01 X78.2654 Y31.4650 
G01 X78.1088 Y31.4961 
G01 X77.9492 Y31.4961 
G01 X77.8015 Y31.4667 
G01 X77.7926 Y31.4650 
G01 X77.6451 Y31.4039 
G01 X77.5993 Y31.3733 
G01 X77.5124 Y31.3152 
G01 X77.4854 Y31.2882 
G01 X77.4854 Y32.2118 
G01 X77.5124 Y32.1848 
G01 X77.6029 Y32.1244 
G01 X77.6451 Y32.0961 
G01 X77.7896 Y32.0363 
G01 X77.7926 Y32.0350 
G01 X77.9492 Y32.0039 
G01 X78.1088 Y32.0039 
G01 X78.2654 Y32.0350 
G01 X78.4129 Y32.0961 
G01 X78.5456 Y32.1848 
G01 X78.6585 Y32.2977 
G01 X78.7189 Y32.3881 
G01 X78.7472 Y32.4304 
G01 X78.8070 Y32.5749 
G01 X78.8083 Y32.5779 
G01 X78.8394 Y32.7345 
G01 X78.8394 Y37.4875 
G01 X78.8100 Y37.6352 
G01 X78.8083 Y37.6441 
G01 X78.7472 Y37.7916 
G01 X78.7166 Y37.8374 
G01 X78.6585 Y37.9243 
G01 X78.5456 Y38.0372 
G01 X78.4146 Y38.1247 
G01 X78.2654 Y38.1869 
G01 X78.1088 Y38.2181 
G01 X77.9492 Y38.2181 
G01 X77.8015 Y38.1887 
G01 X77.7926 Y38.1869 
G01 X77.6451 Y38.1259 
G01 X77.5993 Y38.0953 
G01 X77.5124 Y38.0372 
G01 X76.8616 Y37.3864 
G01 X75.0712 Y37.3864 
G01 X74.9146 Y37.3553 
G01 X74.7671 Y37.2942 
G01 X74.6344 Y37.2055 
G01 X74.5215 Y37.0926 
G01 X74.4328 Y36.9599 
G01 X74.3717 Y36.8124 
G01 X74.3406 Y36.6558 
G01 X74.3406 Y35.5286 
G01 X74.3406 Y35.4496 
G01 X74.3406 Y35.3689 
G01 X74.3486 Y35.3287 
G01 X74.3486 Y34.7317 
G01 X74.1433 Y34.2361 
G01 X73.7064 Y33.7992 
G01 X73.5935 Y33.6863 
G01 X73.3201 Y33.4129 
G01 X72.8832 Y32.9760 
G01 X72.3875 Y32.7706 
G01 X61.7317 Y32.7706 
G01 X61.2361 Y32.9760 
G01 X59.2936 Y34.9184 
G01 X58.8567 Y35.3553 
G01 X58.6307 Y35.9009 
G01 X58.5993 Y35.9768 
G01 X58.5697 Y36.0483 
G01 X58.5112 Y36.1359 
G01 X58.4810 Y36.1811 
G01 X58.4254 Y36.2366 
G01 X58.3681 Y36.2939 
G01 X58.2354 Y36.3826 
G01 X58.1372 Y36.4233 
G01 X58.0879 Y36.4437 
G01 X58.0627 Y36.4487 
G01 X57.9313 Y36.4749 
G01 X57.7717 Y36.4749 
G01 X57.6433 Y36.4493 
G01 X57.6151 Y36.4437 
G01 X57.5914 Y36.4339 
G01 X56.9286 Y36.4339 
G01 X56.3162 Y36.6875 
G01 X55.8475 Y37.1562 
G01 X55.5939 Y37.7686 
G01 X55.5939 Y38.4314 
G01 X55.8475 Y39.0438 
G01 X56.0363 Y39.2326 
G01 X56.1492 Y39.3454 
G01 X56.2367 Y39.4764 
G01 X56.2990 Y39.6257 
G01 X56.3301 Y39.7822 
G01 X56.3301 Y39.9419 
G01 X56.2990 Y40.0984 
G01 X56.2744 Y40.1578 
G01 X56.2379 Y40.2459 
G01 X56.2073 Y40.2917 
G01 X56.1492 Y40.3786 
G01 X56.0363 Y40.4915 
G01 X55.9054 Y40.5790 
G01 X55.8861 Y40.5875 
G01 X55.2361 Y40.8567 
G01 X54.7992 Y41.2936 
G01 X53.5767 Y42.5161 
G01 X53.3714 Y43.0117 
G01 X53.3714 Y51.1556 
G01 X53.3752 Y51.2035 
G01 X53.3714 Y51.2352 
G01 X53.3714 Y51.2672 
G01 X53.3620 Y51.3143 
G01 X53.3564 Y51.3620 
G01 X53.3465 Y51.3924 
G01 X53.3403 Y51.4238 
G01 X53.3219 Y51.4681 
G01 X53.3070 Y51.5138 
G01 X53.2914 Y51.5417 
G01 X53.2792 Y51.5713 
G01 X53.2525 Y51.6112 
G01 X53.2290 Y51.6531 
G01 X53.2082 Y51.6774 
G01 X53.1905 Y51.7040 
G01 X53.1565 Y51.7379 
G01 X53.1253 Y51.7744 
G01 X53.1002 Y51.7943 
G01 X53.0776 Y51.8169 
G01 X53.0377 Y51.8435 
G01 X53.0000 Y51.8733 
G01 X52.9904 Y51.8781 
G01 X52.9904 Y52.5089 
G01 X53.0094 Y52.6043 
G01 X53.0094 Y54.0757 
G01 X52.9904 Y54.1711 
G01 X52.9904 Y54.5100 
G01 X53.0172 Y54.5131 
G01 X53.0492 Y54.5131 
G01 X53.0962 Y54.5225 
G01 X53.1439 Y54.5281 
G01 X53.1744 Y54.5380 
G01 X53.2058 Y54.5443 
G01 X53.2501 Y54.5626 
G01 X53.2957 Y54.5775 
G01 X53.3237 Y54.5931 
G01 X53.3533 Y54.6054 
G01 X53.3931 Y54.6320 
G01 X53.4350 Y54.6555 
G01 X53.4594 Y54.6763 
G01 X53.4860 Y54.6941 
G01 X53.5199 Y54.7280 
G01 X53.5564 Y54.7591 
G01 X53.5762 Y54.7843 
G01 X53.9453 Y55.1534 
G01 X54.4480 Y55.3616 
G01 X54.9920 Y55.3616 
G01 X55.4947 Y55.1534 
G01 X55.5795 Y55.0686 
G01 X55.6895 Y54.9586 
G01 X55.6924 Y54.9557 
G01 X55.7787 Y54.8980 
G01 X55.8251 Y54.8670 
G01 X55.8653 Y54.8504 
G01 X55.9726 Y54.8059 
G01 X56.1291 Y54.7748 
G01 X56.2888 Y54.7748 
G01 X56.3493 Y54.7868 
G01 X56.4453 Y54.8059 
G01 X56.5928 Y54.8670 
G01 X56.9286 Y55.0061 
G01 X57.5914 Y55.0061 
G01 X58.2038 Y54.7524 
G01 X58.6725 Y54.2838 
G01 X58.9261 Y53.6714 
G01 X58.9261 Y53.0086 
G01 X58.6725 Y52.3962 
G01 X58.2038 Y51.9275 
G01 X57.5914 Y51.6739 
G01 X56.7992 Y51.6739 
G01 X56.6426 Y51.6428 
G01 X56.4951 Y51.5817 
G01 X56.3624 Y51.4930 
G01 X56.2495 Y51.3801 
G01 X56.1608 Y51.2474 
G01 X56.0997 Y51.0999 
G01 X56.0686 Y50.9433 
G01 X56.0686 Y44.1741 
G01 X56.0686 Y44.0946 
G01 X56.0822 Y44.0262 
G01 X56.0997 Y43.9380 
G01 X56.1321 Y43.8597 
G01 X56.1608 Y43.7905 
G01 X56.2036 Y43.7264 
G01 X56.2495 Y43.6578 
G01 X56.2648 Y43.6424 
G01 X56.3062 Y43.6010 
G01 X56.3776 Y43.5296 
G01 X56.4295 Y43.4949 
G01 X56.5103 Y43.4409 
G01 X56.5933 Y43.4065 
G01 X56.6578 Y43.3798 
G01 X56.7453 Y43.3624 
G01 X56.8144 Y43.3486 
G01 X56.8939 Y43.3486 
G01 X56.9740 Y43.3486 
G01 X58.2683 Y43.3486 
G01 X58.7639 Y43.1433 
G01 X59.3137 Y42.5935 
G01 X61.1433 Y40.7639 
G01 X61.2793 Y40.4355 
G01 X61.2976 Y40.3914 
G01 X61.3404 Y40.2880 
G01 X61.4291 Y40.1552 
G01 X61.5420 Y40.0424 
G01 X61.6053 Y40.0001 
G01 X61.6747 Y39.9537 
G01 X61.8222 Y39.8926 
G01 X61.9254 Y39.8721 
G01 X61.9417 Y39.8688 
G01 X61.9226 Y39.8650 
G01 X61.7751 Y39.8039 
G01 X61.7323 Y39.7753 
G01 X61.6424 Y39.7153 
G01 X61.5295 Y39.6024 
G01 X61.4408 Y39.4697 
G01 X61.4121 Y39.4003 
G01 X61.3797 Y39.3222 
G01 X61.3486 Y39.1656 
G01 X61.3486 Y36.9337 
G01 X61.3797 Y36.7771 
G01 X61.4408 Y36.6297 
G01 X61.5295 Y36.4969 
G01 X61.6424 Y36.3841 
G01 X62.3777 Y35.6488 
G00 Z2.4000 
G00 X64.1545 Y39.0706 
G01 Z-0.1000 F50.00 
G01 X65.8455 Y39.0706 F100.00 
G01 X66.0251 Y39.1063 
G01 X66.1942 Y39.1764 
G01 X66.3465 Y39.2781 
G01 X66.4759 Y39.4075 
G01 X66.5776 Y39.5598 
G01 X66.6477 Y39.7289 
G01 X66.6834 Y39.9085 
G01 X66.6834 Y40.0915 
G01 X66.6477 Y40.2711 
G01 X66.5776 Y40.4402 
G01 X66.4759 Y40.5925 
G01 X66.3465 Y40.7219 
G01 X66.1942 Y40.8236 
G01 X66.0251 Y40.8937 
G01 X65.8455 Y40.9294 
G01 X64.1545 Y40.9294 
G01 X63.9749 Y40.8937 
G01 X63.8058 Y40.8236 
G01 X63.6535 Y40.7219 
G01 X63.5241 Y40.5925 
G01 X63.4224 Y40.4402 
G01 X63.3523 Y40.2711 
G01 X63.3166 Y40.0915 
G01 X63.3166 Y39.9085 
G01 X63.3523 Y39.7289 
G01 X63.4224 Y39.5598 
G01 X63.5241 Y39.4075 
G01 X63.6535 Y39.2781 
G01 X63.8058 Y39.1764 
G01 X63.9749 Y39.1063 
G01 X64.1545 Y39.0706 
G00 Z2.4000 
G00 X69.1545 Y44.0706 
G01 Z-0.1000 F50.00 
G01 X70.8455 Y44.0706 F100.00 
G01 X71.0251 Y44.1063 
G01 X71.1942 Y44.1764 
G01 X71.2140 Y44.1896 
G01 X72.6643 Y44.1896 
G01 X75.1896 Y41.6643 
G01 X75.1896 Y40.5637 
G01 X74.5946 Y39.9687 
G01 X74.5946 Y38.7713 
G01 X75.4413 Y37.9246 
G01 X76.6387 Y37.9246 
G01 X77.4854 Y38.7713 
G01 X77.4854 Y39.9687 
G01 X76.8104 Y40.6437 
G01 X76.8104 Y42.0798 
G01 X76.7793 Y42.2364 
G01 X76.7182 Y42.3839 
G01 X76.6295 Y42.5166 
G01 X76.5166 Y42.6295 
G01 X73.5166 Y45.6295 
G01 X73.3839 Y45.7182 
G01 X73.2364 Y45.7793 
G01 X73.0798 Y45.8104 
G01 X71.2140 Y45.8104 
G01 X71.1942 Y45.8236 
G01 X71.0251 Y45.8937 
G01 X70.8455 Y45.9294 
G01 X69.1545 Y45.9294 
G01 X68.9749 Y45.8937 
G01 X68.8058 Y45.8236 
G01 X68.6535 Y45.7219 
G01 X68.5241 Y45.5925 
G01 X68.4224 Y45.4402 
G01 X68.3523 Y45.2711 
G01 X68.3166 Y45.0915 
G01 X68.3166 Y44.9085 
G01 X68.3523 Y44.7289 
G01 X68.4224 Y44.5598 
G01 X68.5241 Y44.4075 
G01 X68.6535 Y44.2781 
G01 X68.8058 Y44.1764 
G01 X68.9749 Y44.1063 
G01 X69.1545 Y44.0706 
G00 Z2.4000 
G00 X64.1545 Y44.0706 
G01 Z-0.1000 F50.00 
G01 X65.8455 Y44.0706 F100.00 
G01 X66.0251 Y44.1063 
G01 X66.1942 Y44.1764 
G01 X66.3465 Y44.2781 
G01 X66.4759 Y44.4075 
G01 X66.5776 Y44.5598 
G01 X66.6477 Y44.7289 
G01 X66.6834 Y44.9085 
G01 X66.6834 Y45.0915 
G01 X66.6477 Y45.2711 
G01 X66.5776 Y45.4402 
G01 X66.4759 Y45.5925 
G01 X66.3465 Y45.7219 
G01 X66.1942 Y45.8236 
G01 X66.0251 Y45.8937 
G01 X65.8455 Y45.9294 
G01 X64.1545 Y45.9294 
G01 X63.9749 Y45.8937 
G01 X63.8058 Y45.8236 
G01 X63.6535 Y45.7219 
G01 X63.5241 Y45.5925 
G01 X63.4224 Y45.4402 
G01 X63.3523 Y45.2711 
G01 X63.3166 Y45.0915 
G01 X63.3166 Y44.9085 
G01 X63.3523 Y44.7289 
G01 X63.4224 Y44.5598 
G01 X63.5241 Y44.4075 
G01 X63.6535 Y44.2781 
G01 X63.8058 Y44.1764 
G01 X63.9749 Y44.1063 
G01 X64.1545 Y44.0706 
G00 Z2.4000 
G00 X71.7836 Y34.9296 
G01 Z-0.1000 F50.00 
G01 X62.3357 Y34.9296 F100.00 
G01 X60.8104 Y36.4549 
G01 X60.8104 Y40.0798 
G01 X60.7793 Y40.2364 
G01 X60.7182 Y40.3839 
G01 X60.6295 Y40.5166 
G01 X58.6295 Y42.5166 
G01 X58.5166 Y42.6295 
G01 X58.3839 Y42.7182 
G01 X58.2364 Y42.7793 
G01 X58.0798 Y42.8104 
G01 X56.3357 Y42.8104 
G01 X55.5304 Y43.6157 
G01 X55.5304 Y52.5088 
G01 X55.5494 Y52.6043 
G01 X55.5494 Y54.0757 
G01 X55.5175 Y54.2359 
G01 X55.4550 Y54.3869 
G01 X55.3642 Y54.5227 
G01 X55.2487 Y54.6382 
G01 X55.1129 Y54.7290 
G01 X54.9619 Y54.7915 
G01 X54.8017 Y54.8234 
G01 X54.6383 Y54.8234 
G01 X54.4781 Y54.7915 
G01 X54.3271 Y54.7290 
G01 X54.1913 Y54.6382 
G01 X54.0758 Y54.5227 
G01 X53.9850 Y54.3869 
G01 X53.9225 Y54.2359 
G01 X53.8906 Y54.0757 
G01 X53.8906 Y52.6043 
G01 X53.9096 Y52.5088 
G01 X53.9096 Y43.2002 
G01 X53.9407 Y43.0436 
G01 X54.0018 Y42.8961 
G01 X54.0905 Y42.7634 
G01 X55.3705 Y41.4834 
G01 X55.4834 Y41.3705 
G01 X55.6161 Y41.2818 
G01 X55.7636 Y41.2207 
G01 X55.9202 Y41.1896 
G01 X57.6643 Y41.1896 
G01 X59.1896 Y39.6643 
G01 X59.1896 Y36.0394 
G01 X59.2207 Y35.8829 
G01 X59.2818 Y35.7354 
G01 X59.3705 Y35.6027 
G01 X59.4834 Y35.4898 
G01 X61.4834 Y33.4898 
G01 X61.6161 Y33.4011 
G01 X61.7636 Y33.3400 
G01 X61.9202 Y33.3088 
G01 X72.1991 Y33.3088 
G01 X72.3556 Y33.3400 
G01 X72.5031 Y33.4011 
G01 X72.6358 Y33.4898 
G01 X72.7487 Y33.6027 
G01 X73.5166 Y34.3705 
G01 X73.6295 Y34.4834 
G01 X73.7182 Y34.6161 
G01 X73.7793 Y34.7636 
G01 X73.8104 Y34.9202 
G01 X73.8104 Y35.0798 
G01 X73.8024 Y35.1200 
G01 X73.8024 Y39.0878 
G01 X73.7713 Y39.2444 
G01 X73.7102 Y39.3919 
G01 X73.6215 Y39.5246 
G01 X73.5086 Y39.6375 
G01 X72.5166 Y40.6295 
G01 X72.3839 Y40.7182 
G01 X72.2364 Y40.7793 
G01 X72.0798 Y40.8104 
G01 X71.2140 Y40.8104 
G01 X71.1942 Y40.8236 
G01 X71.0251 Y40.8937 
G01 X70.8455 Y40.9294 
G01 X69.1545 Y40.9294 
G01 X68.9749 Y40.8937 
G01 X68.8058 Y40.8236 
G01 X68.6535 Y40.7219 
G01 X68.5241 Y40.5925 
G01 X68.4224 Y40.4402 
G01 X68.3523 Y40.2711 
G01 X68.3166 Y40.0915 
G01 X68.3166 Y39.9085 
G01 X68.3523 Y39.7289 
G01 X68.4224 Y39.5598 
G01 X68.5241 Y39.4075 
G01 X68.6535 Y39.2781 
G01 X68.8058 Y39.1764 
G01 X68.9749 Y39.1063 
G01 X69.1545 Y39.0706 
G01 X70.8455 Y39.0706 
G01 X71.0251 Y39.1063 
G01 X71.1942 Y39.1764 
G01 X71.2140 Y39.1896 
G01 X71.6643 Y39.1896 
G01 X72.1816 Y38.6723 
G01 X72.1816 Y35.3277 
G01 X71.7836 Y34.9296 
G00 Z2.4000 
G00 X16.8917 Y51.9739 
G01 Z-0.1000 F50.00 
G01 X16.3483 Y51.9739 F100.00 
G01 X15.8462 Y52.1819 
G01 X15.4619 Y52.5662 
G01 X15.2539 Y53.0683 
G01 X15.2539 Y53.6117 
G01 X15.4619 Y54.1138 
G01 X15.8462 Y54.4981 
G01 X16.3483 Y54.7061 
G01 X16.8917 Y54.7061 
G01 X17.3938 Y54.4981 
G01 X17.7781 Y54.1138 
G01 X17.9861 Y53.6117 
G01 X17.9861 Y53.0683 
G01 X17.7781 Y52.5662 
G01 X17.3938 Y52.1819 
G01 X16.8917 Y51.9739 
G00 Z2.4000 
G00 X66.0000 Y21.3405 
G01 Z-0.1000 F50.00 
G01 X66.4826 Y20.8578 F100.00 
G01 X66.4262 Y20.8865 
G01 X66.3700 Y20.9048 
G01 X66.2600 Y20.9406 
G01 X66.0874 Y20.9679 
G01 X65.9126 Y20.9679 
G01 X65.8599 Y20.9595 
G01 X65.7400 Y20.9406 
G01 X65.6798 Y20.9210 
G01 X65.5737 Y20.8865 
G01 X65.5174 Y20.8578 
G01 X66.0000 Y21.3405 
G00 Z2.4000 
G00 X19.6458 Y19.0454 
G01 Z-0.1000 F50.00 
G01 X19.2402 Y19.0454 F100.00 
G01 X18.8483 Y19.1504 
G01 X18.4970 Y19.3532 
G01 X18.2102 Y19.6400 
G01 X18.0074 Y19.9914 
G01 X17.9024 Y20.3832 
G01 X17.9024 Y20.7888 
G01 X18.0074 Y21.1806 
G01 X18.2102 Y21.5320 
G01 X18.4970 Y21.8188 
G01 X18.8483 Y22.0216 
G01 X19.2402 Y22.1266 
G01 X19.6458 Y22.1266 
G01 X20.0376 Y22.0216 
G01 X20.3890 Y21.8188 
G01 X20.6758 Y21.5320 
G01 X20.8786 Y21.1806 
G01 X20.9836 Y20.7888 
G01 X20.9836 Y20.3832 
G01 X20.8786 Y19.9914 
G01 X20.6758 Y19.6400 
G01 X20.3890 Y19.3532 
G01 X20.0376 Y19.1504 
G01 X19.6458 Y19.0454 
G00 Z2.4000 
G00 X35.8296 Y51.8124 
G01 Z-0.1000 F50.00 
G01 X35.5406 Y51.5234 F100.00 
G01 X35.1281 Y51.5234 
G01 X35.1882 Y51.5430 
G01 X35.3440 Y51.6223 
G01 X35.4854 Y51.7250 
G01 X35.6090 Y51.8486 
G01 X35.7117 Y51.9900 
G01 X35.7910 Y52.1457 
G01 X35.8296 Y52.2644 
G01 X35.8296 Y51.8124 
G00 Z2.4000 
G00 X22.3501 Y35.9204 
G01 Z-0.1000 F50.00 
G01 X22.2818 Y35.9204 F100.00 
G01 X22.3420 Y35.9400 
G01 X22.3983 Y35.9687 
G01 X22.3501 Y35.9204 
G00 Z2.4000 
G00 X16.7451 Y33.8723 
G01 Z-0.1000 F50.00 
G01 X16.9017 Y33.7585 F100.00 
G01 X17.0741 Y33.6707 
G01 X17.2581 Y33.6109 
G01 X17.4492 Y33.5806 
G01 X19.1508 Y33.5806 
G01 X19.3419 Y33.6109 
G01 X19.5259 Y33.6707 
G01 X19.5827 Y33.6996 
G01 X22.8974 Y33.6996 
G01 X23.0700 Y33.7269 
G01 X23.2362 Y33.7810 
G01 X23.3920 Y33.8603 
G01 X23.5334 Y33.9630 
G01 X23.6570 Y34.0866 
G01 X25.8470 Y36.2766 
G01 X25.9497 Y36.4180 
G01 X26.0290 Y36.5738 
G01 X26.0831 Y36.7400 
G01 X26.1104 Y36.9126 
G01 X26.1104 Y41.9526 
G01 X33.4604 Y49.3026 
G01 X36.0879 Y49.3026 
G01 X36.2605 Y49.3299 
G01 X36.4267 Y49.3840 
G01 X36.5825 Y49.4633 
G01 X36.7239 Y49.5660 
G01 X37.7870 Y50.6291 
G01 X37.8897 Y50.7705 
G01 X37.9690 Y50.9263 
G01 X38.0231 Y51.0925 
G01 X38.0504 Y51.2651 
G01 X38.0504 Y52.4772 
G01 X38.0694 Y52.5971 
G01 X38.0694 Y54.0829 
G01 X38.0416 Y54.2585 
G01 X37.9867 Y54.4275 
G01 X37.9059 Y54.5859 
G01 X37.8015 Y54.7298 
G01 X37.7274 Y54.8038 
G01 X37.7837 Y54.7751 
G01 X37.8388 Y54.7572 
G01 X37.9499 Y54.7211 
G01 X38.0428 Y54.7064 
G01 X38.1226 Y54.6938 
G01 X38.2090 Y54.6938 
G01 X38.2973 Y54.6938 
G01 X38.4151 Y54.7124 
G01 X38.4700 Y54.7211 
G01 X38.5631 Y54.7513 
G01 X38.6362 Y54.7751 
G01 X38.6926 Y54.8038 
G01 X38.6185 Y54.7298 
G01 X38.5141 Y54.5859 
G01 X38.4333 Y54.4275 
G01 X38.3784 Y54.2585 
G01 X38.3506 Y54.0829 
G01 X38.3506 Y52.5971 
G01 X38.3696 Y52.4772 
G01 X38.3696 Y50.9399 
G01 X36.5401 Y49.1104 
G01 X33.9126 Y49.1104 
G01 X33.7400 Y49.0831 
G01 X33.5738 Y49.0290 
G01 X33.4180 Y48.9497 
G01 X33.2766 Y48.8470 
G01 X33.1530 Y48.7234 
G01 X27.2766 Y42.8470 
G01 X27.1530 Y42.7234 
G01 X27.0503 Y42.5820 
G01 X26.9710 Y42.4262 
G01 X26.9169 Y42.2600 
G01 X26.8896 Y42.0874 
G01 X26.8896 Y34.5132 
G01 X25.7568 Y33.3804 
G01 X19.5827 Y33.3804 
G01 X19.5259 Y33.4093 
G01 X19.3419 Y33.4691 
G01 X19.1508 Y33.4994 
G01 X17.4492 Y33.4994 
G01 X17.2581 Y33.4691 
G01 X17.0741 Y33.4093 
G01 X16.9017 Y33.3215 
G01 X16.7451 Y33.2077 
G01 X16.6180 Y33.0806 
G01 X16.6332 Y33.1173 
G01 X16.6657 Y33.1958 
G01 X16.6759 Y33.2385 
G01 X16.7065 Y33.3658 
G01 X16.7190 Y33.5243 
G01 X16.7202 Y33.5400 
G01 X16.7084 Y33.6896 
G01 X16.7065 Y33.7142 
G01 X16.7045 Y33.7223 
G01 X16.6657 Y33.8842 
G01 X16.6179 Y33.9994 
G01 X16.7451 Y33.8723 
G00 Z2.4000 
G00 X68.5406 Y23.1809 
G01 Z-0.1000 F50.00 
G01 X68.4780 Y23.0725 F100.00 
G01 X68.4456 Y22.9516 
G01 X68.4456 Y22.7539 
G01 X67.8969 Y23.3026 
G01 X67.9043 Y23.3026 
G01 X67.9453 Y23.2819 
G01 X67.9869 Y23.2684 
G01 X68.0273 Y23.2516 
G01 X68.0699 Y23.2414 
G01 X68.1115 Y23.2279 
G01 X68.1547 Y23.2211 
G01 X68.1973 Y23.2108 
G01 X68.2409 Y23.2074 
G01 X68.2841 Y23.2006 
G01 X68.3279 Y23.2006 
G01 X68.3715 Y23.1971 
G01 X68.4152 Y23.2006 
G01 X68.4589 Y23.2006 
G01 X68.5021 Y23.2074 
G01 X68.5458 Y23.2108 
G01 X68.5784 Y23.2187 
G01 X68.5406 Y23.1809 
G00 Z2.4000 
G00 X70.9755 Y20.7217 
G01 Z-0.1000 F50.00 
G01 X70.9400 Y20.6521 F100.00 
G01 X70.9400 Y20.6520 
G01 X70.9206 Y20.5926 
G01 X70.9204 Y20.6899 
G01 X70.9755 Y20.7217 
G00 Z2.4000 
G00 X10.6974 Y19.5287 
G01 Z-0.1000 F50.00 
G01 X10.7170 Y19.4685 F100.00 
G01 X10.7457 Y19.4122 
G01 X10.6974 Y19.4604 
G01 X10.6974 Y19.5287 
G00 Z2.4000 
G00 X68.5628 Y19.1608 
G01 Z-0.1000 F50.00 
G01 X68.6168 Y19.3270 F100.00 
G01 X68.6441 Y19.4996 
G01 X68.6441 Y19.6744 
G01 X68.6168 Y19.8470 
G01 X68.5628 Y20.0132 
G01 X68.4834 Y20.1690 
G01 X68.3807 Y20.3104 
G01 X68.2571 Y20.4340 
G01 X68.1157 Y20.5367 
G01 X67.9600 Y20.6160 
G01 X67.8510 Y20.6515 
G01 X68.4456 Y21.2461 
G01 X68.4456 Y21.0484 
G01 X68.4780 Y20.9275 
G01 X68.5406 Y20.8191 
G01 X68.6291 Y20.7306 
G01 X68.6996 Y20.6899 
G01 X68.6996 Y19.2699 
G01 X68.5340 Y19.1044 
G01 X68.5628 Y19.1608 
G00 Z2.4000 
G00 X14.4122 Y15.7457 
G01 Z-0.1000 F50.00 
G01 X14.4685 Y15.7170 F100.00 
G01 X14.5287 Y15.6974 
G01 X14.4604 Y15.6974 
G01 X14.4122 Y15.7457 
G00 Z2.4000 
G00 X65.1190 Y15.7170 
G01 Z-0.1000 F50.00 
G01 X65.1753 Y15.7457 F100.00 
G01 X65.1271 Y15.6974 
G01 X65.0588 Y15.6974 
G01 X65.1190 Y15.7170 
G00 Z2.4000 
G00 X41.9407 Y47.8896 
G01 Z-0.1000 F50.00 
G01 X41.8805 Y47.8700 F100.00 
G01 X41.8241 Y47.8413 
G01 X41.8724 Y47.8896 
G01 X41.9407 Y47.8896 
G00 Z2.4000 
G00 X35.5277 Y44.4766 
G01 Z-0.1000 F50.00 
G01 X35.4675 Y44.4570 F100.00 
G01 X35.4112 Y44.4283 
G01 X35.4594 Y44.4766 
G01 X35.5277 Y44.4766 
G00 Z2.4000 
G00 X44.5320 Y50.1300 
G01 Z-0.1000 F50.00 
G01 X44.5883 Y50.1587 F100.00 
G01 X44.5401 Y50.1104 
G01 X44.4718 Y50.1104 
G01 X44.5320 Y50.1300 
G00 Z2.4000 
G00 X45.9700 Y51.5680 
G01 Z-0.1000 F50.00 
G01 X45.9896 Y51.6282 F100.00 
G01 X45.9896 Y51.5599 
G01 X45.9413 Y51.5116 
G01 X45.9700 Y51.5680 
G00 Z2.4000 
G00 X10.7170 Y26.5315 
G01 Z-0.1000 F50.00 
G01 X10.6974 Y26.4713 F100.00 
G01 X10.6974 Y26.5396 
G01 X10.7457 Y26.5878 
G01 X10.7170 Y26.5315 
G00 Z2.4000 
G00 X15.4619 Y37.3262 
G01 Z-0.1000 F50.00 
G01 X15.2539 Y37.8283 F100.00 
G01 X15.2539 Y38.3717 
G01 X15.4619 Y38.8738 
G01 X15.8462 Y39.2581 
G01 X16.3483 Y39.4661 
G01 X16.8938 Y39.4661 
G01 X16.9521 Y39.4630 
G01 X16.9811 Y39.4661 
G01 X17.0103 Y39.4661 
G01 X17.0679 Y39.4752 
G01 X17.1259 Y39.4813 
G01 X17.1541 Y39.4889 
G01 X17.1829 Y39.4934 
G01 X17.2384 Y39.5115 
G01 X17.2947 Y39.5266 
G01 X17.3214 Y39.5384 
G01 X17.3491 Y39.5475 
G01 X17.4011 Y39.5739 
G01 X17.4544 Y39.5976 
G01 X17.4789 Y39.6135 
G01 X17.5049 Y39.6268 
G01 X17.5521 Y39.6611 
G01 X17.6010 Y39.6928 
G01 X17.6227 Y39.7124 
G01 X17.6463 Y39.7295 
G01 X17.6875 Y39.7707 
G01 X17.7308 Y39.8098 
G01 X17.7492 Y39.8325 
G01 X17.7699 Y39.8531 
G01 X17.8041 Y39.9003 
G01 X17.8408 Y39.9456 
G01 X17.8554 Y39.9709 
G01 X17.8726 Y39.9945 
G01 X17.8991 Y40.0465 
G01 X17.9282 Y40.0970 
G01 X17.9387 Y40.1243 
G01 X17.9519 Y40.1502 
G01 X17.9700 Y40.2057 
G01 X17.9909 Y40.2602 
G01 X17.9969 Y40.2887 
G01 X18.0060 Y40.3165 
G01 X18.0151 Y40.3741 
G01 X18.0272 Y40.4311 
G01 X18.0287 Y40.4603 
G01 X18.0333 Y40.4891 
G01 X18.0333 Y40.5474 
G01 X18.0363 Y40.6057 
G01 X18.0333 Y40.6347 
G01 X18.0333 Y40.6639 
G01 X18.0242 Y40.7215 
G01 X18.0181 Y40.7795 
G01 X18.0105 Y40.8077 
G01 X18.0060 Y40.8365 
G01 X17.9879 Y40.8920 
G01 X17.9024 Y41.2112 
G01 X17.9024 Y41.6168 
G01 X18.0074 Y42.0086 
G01 X18.2102 Y42.3600 
G01 X18.4970 Y42.6468 
G01 X18.8483 Y42.8496 
G01 X19.2402 Y42.9546 
G01 X19.6458 Y42.9546 
G01 X20.0376 Y42.8496 
G01 X20.3890 Y42.6468 
G01 X20.6758 Y42.3600 
G01 X20.8786 Y42.0086 
G01 X20.9836 Y41.6168 
G01 X20.9836 Y41.2112 
G01 X20.8786 Y40.8194 
G01 X20.6758 Y40.4680 
G01 X20.3890 Y40.1812 
G01 X20.0376 Y39.9784 
G01 X19.6458 Y39.8734 
G01 X19.2402 Y39.8734 
G01 X19.2204 Y39.8787 
G01 X19.2059 Y39.8802 
G01 X19.1916 Y39.8836 
G01 X19.1190 Y39.8894 
G01 X19.0466 Y39.8970 
G01 X19.0320 Y39.8962 
G01 X19.0174 Y39.8974 
G01 X18.9447 Y39.8916 
G01 X18.8720 Y39.8878 
G01 X18.8577 Y39.8848 
G01 X18.8432 Y39.8836 
G01 X18.7723 Y39.8666 
G01 X18.7011 Y39.8515 
G01 X18.6874 Y39.8462 
G01 X18.6732 Y39.8428 
G01 X18.6059 Y39.8149 
G01 X18.5379 Y39.7889 
G01 X18.5253 Y39.7815 
G01 X18.5117 Y39.7759 
G01 X18.4496 Y39.7379 
G01 X18.3865 Y39.7015 
G01 X18.3752 Y39.6923 
G01 X18.3627 Y39.6846 
G01 X18.3073 Y39.6373 
G01 X18.2507 Y39.5915 
G01 X18.2409 Y39.5806 
G01 X18.2298 Y39.5711 
G01 X18.1825 Y39.5157 
G01 X18.1338 Y39.4616 
G01 X18.1258 Y39.4493 
G01 X18.1163 Y39.4382 
G01 X18.0782 Y39.3761 
G01 X18.0386 Y39.3150 
G01 X18.0326 Y39.3017 
G01 X18.0250 Y39.2892 
G01 X17.9971 Y39.2219 
G01 X17.9675 Y39.1553 
G01 X17.9637 Y39.1412 
G01 X17.9581 Y39.1277 
G01 X17.9411 Y39.0569 
G01 X17.9222 Y38.9865 
G01 X17.9207 Y38.9720 
G01 X17.9173 Y38.9577 
G01 X17.9116 Y38.8851 
G01 X17.9040 Y38.8127 
G01 X17.9047 Y38.7981 
G01 X17.9036 Y38.7835 
G01 X17.9093 Y38.7108 
G01 X17.9131 Y38.6382 
G01 X17.9162 Y38.6239 
G01 X17.9173 Y38.6093 
G01 X17.9343 Y38.5384 
G01 X17.9494 Y38.4672 
G01 X17.9547 Y38.4535 
G01 X17.9581 Y38.4393 
G01 X17.9860 Y38.3720 
G01 X17.9861 Y37.8283 
G01 X17.8722 Y37.5532 
G01 X17.8523 Y37.5142 
G01 X17.8388 Y37.4726 
G01 X17.8220 Y37.4322 
G01 X17.8118 Y37.3897 
G01 X17.7983 Y37.3480 
G01 X17.7914 Y37.3048 
G01 X17.7812 Y37.2622 
G01 X17.7778 Y37.2186 
G01 X17.7710 Y37.1754 
G01 X17.7710 Y37.1316 
G01 X17.7675 Y37.0880 
G01 X17.7710 Y37.0444 
G01 X17.7710 Y37.0006 
G01 X17.7778 Y36.9574 
G01 X17.7812 Y36.9138 
G01 X17.7914 Y36.8712 
G01 X17.7983 Y36.8280 
G01 X17.8118 Y36.7864 
G01 X17.8220 Y36.7438 
G01 X17.8388 Y36.7034 
G01 X17.8523 Y36.6618 
G01 X17.8722 Y36.6228 
G01 X17.8889 Y36.5823 
G01 X17.9118 Y36.5450 
G01 X17.9317 Y36.5060 
G01 X17.9574 Y36.4706 
G01 X17.9802 Y36.4333 
G01 X18.0087 Y36.4000 
G01 X18.0344 Y36.3646 
G01 X18.0653 Y36.3337 
G01 X18.0937 Y36.3004 
G01 X18.1270 Y36.2720 
G01 X18.1580 Y36.2410 
G01 X18.1934 Y36.2153 
G01 X18.2266 Y36.1869 
G01 X18.2640 Y36.1640 
G01 X18.2994 Y36.1383 
G01 X18.3384 Y36.1184 
G01 X18.3757 Y36.0956 
G01 X18.4161 Y36.0788 
G01 X18.4551 Y36.0590 
G01 X18.4967 Y36.0454 
G01 X18.5113 Y36.0394 
G01 X17.4492 Y36.0394 
G01 X17.2581 Y36.0091 
G01 X17.0741 Y35.9493 
G01 X16.9017 Y35.8615 
G01 X16.7451 Y35.7477 
G01 X16.6083 Y35.6109 
G01 X16.5958 Y35.5937 
G01 X16.6214 Y35.7003 
G01 X16.6351 Y35.8746 
G01 X16.6214 Y36.0488 
G01 X16.5899 Y36.1799 
G01 X16.5806 Y36.2188 
G01 X16.5616 Y36.2647 
G01 X16.5137 Y36.3802 
G01 X16.4224 Y36.5293 
G01 X16.3089 Y36.6622 
G01 X16.2956 Y36.6735 
G01 X16.1760 Y36.7757 
G01 X16.0319 Y36.8639 
G01 X16.0269 Y36.8670 
G01 X15.8655 Y36.9339 
G01 X15.8462 Y36.9419 
G01 X15.4619 Y37.3262 
G00 Z2.4000 
G00 X23.8896 Y37.4599 
G01 Z-0.1000 F50.00 
G01 X23.8413 Y37.4116 F100.00 
G01 X23.8700 Y37.4680 
G01 X23.8896 Y37.5282 
G01 X23.8896 Y37.4599 
G00 Z2.4000 
G00 X63.4600 Y21.3405 
G01 Z-0.1000 F50.00 
G01 X63.4936 Y21.3068 F100.00 
G01 X63.4491 Y21.3295 
G01 X63.4600 Y21.3405 
G00 Z2.4000 
G00 X61.5320 Y27.8700 
G01 Z-0.1000 F50.00 
G01 X61.4718 Y27.8896 F100.00 
G01 X61.5401 Y27.8896 
G01 X61.5884 Y27.8413 
G01 X61.5320 Y27.8700 
G00 Z2.4000 
G00 X63.6000 Y25.8020 
G01 Z-0.1000 F50.00 
G01 X63.5713 Y25.8584 F100.00 
G01 X63.6196 Y25.8101 
G01 X63.6196 Y25.7418 
G01 X63.6000 Y25.8020 
G00 Z2.4000 
G00 X56.4680 Y30.1300 
G01 Z-0.1000 F50.00 
G01 X56.5282 Y30.1104 F100.00 
G01 X56.4599 Y30.1104 
G01 X56.4117 Y30.1587 
G01 X56.4680 Y30.1300 
G00 Z2.4000 
G00 X53.3100 Y33.2880 
G01 Z-0.1000 F50.00 
G01 X53.3387 Y33.2317 F100.00 
G01 X53.2904 Y33.2799 
G01 X53.2904 Y33.3482 
G01 X53.3100 Y33.2880 
G00 Z2.4000 
G00 X63.4600 Y22.6595 
G01 Z-0.1000 F50.00 
G01 X63.3004 Y22.8191 F100.00 
G01 X63.3004 Y22.9371 
G01 X63.4180 Y23.0546 
G01 X63.5207 Y23.1960 
G01 X63.6000 Y23.3518 
G01 X63.6196 Y23.4119 
G01 X63.6196 Y22.8191 
G01 X63.4600 Y22.6595 
G00 Z2.4000 
G00 X65.8599 Y23.9868 
G01 Z-0.1000 F50.00 
G01 X65.9393 Y23.8310 F100.00 
G01 X66.0420 Y23.6896 
G01 X66.1656 Y23.5660 
G01 X66.3070 Y23.4633 
G01 X66.4627 Y23.3840 
G01 X66.6290 Y23.3299 
G01 X66.6647 Y23.3243 
G01 X66.0000 Y22.6595 
G01 X65.8404 Y22.8191 
G01 X65.8404 Y24.0469 
G01 X65.8599 Y23.9868 
G00 Z2.4000 
G00 X12.7855 Y28.6000 
G01 Z-0.1000 F50.00 
G01 X12.7291 Y28.5713 F100.00 
G01 X12.7774 Y28.6196 
G01 X12.8457 Y28.6196 
G01 X12.7855 Y28.6000 
G00 Z2.4000 
G00 X17.4492 Y28.5006 
G01 Z-0.1000 F50.00 
G01 X19.1508 Y28.5006 F100.00 
G01 X19.3419 Y28.5309 
G01 X19.5259 Y28.5907 
G01 X19.5827 Y28.6196 
G01 X20.2780 Y28.6196 
G01 X20.2544 Y28.6091 
G01 X20.2266 Y28.6000 
G01 X20.1747 Y28.5736 
G01 X20.1214 Y28.5498 
G01 X20.0969 Y28.5339 
G01 X20.0709 Y28.5207 
G01 X20.0237 Y28.4864 
G01 X19.9748 Y28.4546 
G01 X19.9531 Y28.4351 
G01 X19.9295 Y28.4180 
G01 X19.8882 Y28.3767 
G01 X19.8449 Y28.3377 
G01 X19.8265 Y28.3150 
G01 X19.8119 Y28.3004 
G01 X19.5827 Y28.3004 
G01 X19.5259 Y28.3293 
G01 X19.3419 Y28.3891 
G01 X19.1508 Y28.4194 
G01 X17.4492 Y28.4194 
G01 X17.2581 Y28.3891 
G01 X17.0741 Y28.3293 
G01 X17.0173 Y28.3004 
G01 X16.7881 Y28.3004 
G01 X16.7735 Y28.3150 
G01 X16.7551 Y28.3377 
G01 X16.7117 Y28.3767 
G01 X16.6705 Y28.4180 
G01 X16.6469 Y28.4351 
G01 X16.6252 Y28.4546 
G01 X16.5763 Y28.4864 
G01 X16.5291 Y28.5207 
G01 X16.5031 Y28.5339 
G01 X16.4786 Y28.5498 
G01 X16.4253 Y28.5736 
G01 X16.3734 Y28.6000 
G01 X16.3456 Y28.6091 
G01 X16.3219 Y28.6196 
G01 X17.0173 Y28.6196 
G01 X17.0741 Y28.5907 
G01 X17.2581 Y28.5309 
G01 X17.4492 Y28.5006 
G00 Z2.4000 
G00 X29.0290 Y33.6270 
G01 Z-0.1000 F50.00 
G01 X29.0831 Y33.7933 F100.00 
G01 X29.1104 Y33.9659 
G01 X29.1104 Y41.5401 
G01 X34.4599 Y46.8896 
G01 X37.0874 Y46.8896 
G01 X37.2600 Y46.9169 
G01 X37.4262 Y46.9710 
G01 X37.5820 Y47.0503 
G01 X37.7234 Y47.1530 
G01 X40.2034 Y49.6330 
G01 X40.3270 Y49.7566 
G01 X40.4297 Y49.8980 
G01 X40.5090 Y50.0538 
G01 X40.5631 Y50.2200 
G01 X40.5904 Y50.3926 
G01 X40.5904 Y50.7929 
G01 X40.6100 Y50.7328 
G01 X40.6893 Y50.5770 
G01 X40.7920 Y50.4356 
G01 X40.9156 Y50.3120 
G01 X41.0570 Y50.2093 
G01 X41.2127 Y50.1300 
G01 X41.2900 Y50.1048 
G01 X41.1525 Y50.0831 
G01 X40.9863 Y50.0290 
G01 X40.8305 Y49.9497 
G01 X40.6891 Y49.8470 
G01 X37.5396 Y46.6974 
G01 X34.9121 Y46.6974 
G01 X34.7395 Y46.6701 
G01 X34.5733 Y46.6160 
G01 X34.4175 Y46.5367 
G01 X34.2761 Y46.4340 
G01 X30.2766 Y42.4345 
G01 X30.1530 Y42.3109 
G01 X30.0503 Y42.1695 
G01 X29.9710 Y42.0137 
G01 X29.9169 Y41.8475 
G01 X29.8896 Y41.6749 
G01 X29.8896 Y34.4599 
G01 X29.0003 Y33.5707 
G01 X29.0290 Y33.6270 
G00 Z2.4000 
G00 X32.1587 Y41.1758 
G01 Z-0.1000 F50.00 
G01 X32.1300 Y41.1195 F100.00 
G01 X32.1104 Y41.0593 
G01 X32.1104 Y41.1276 
G01 X32.1587 Y41.1758 
G00 Z2.4000 
G00 X19.5259 Y30.8693 
G01 Z-0.1000 F50.00 
G01 X19.3419 Y30.9291 F100.00 
G01 X19.1508 Y30.9594 
G01 X17.4492 Y30.9594 
G01 X17.2581 Y30.9291 
G01 X17.0741 Y30.8693 
G01 X17.0173 Y30.8404 
G01 X15.6341 Y30.8404 
G01 X15.6942 Y30.8600 
G01 X15.8500 Y30.9393 
G01 X15.9914 Y31.0420 
G01 X16.1150 Y31.1656 
G01 X16.2177 Y31.3070 
G01 X16.2970 Y31.4627 
G01 X16.3511 Y31.6290 
G01 X16.3784 Y31.8016 
G01 X16.3784 Y31.8851 
G01 X16.4067 Y31.7981 
G01 X16.4945 Y31.6257 
G01 X16.6083 Y31.4691 
G01 X16.7451 Y31.3323 
G01 X16.9017 Y31.2185 
G01 X17.0741 Y31.1307 
G01 X17.2581 Y31.0709 
G01 X17.4492 Y31.0406 
G01 X19.1508 Y31.0406 
G01 X19.3419 Y31.0709 
G01 X19.5259 Y31.1307 
G01 X19.5827 Y31.1596 
G01 X26.3041 Y31.1596 
G01 X26.4767 Y31.1869 
G01 X26.6430 Y31.2410 
G01 X26.6993 Y31.2697 
G01 X26.2701 Y30.8404 
G01 X19.5827 Y30.8404 
G01 X19.5259 Y30.8693 
G00 Z2.4000 
G00 X74.1423 Y52.2844 
G01 Z-0.1000 F50.00 
G01 X73.8577 Y52.2844 F100.00 
G01 X73.5946 Y52.3933 
G01 X73.3933 Y52.5946 
G01 X73.2844 Y52.8577 
G01 X73.2844 Y53.1423 
G01 X73.3933 Y53.4054 
G01 X73.5946 Y53.6067 
G01 X73.8577 Y53.7156 
G01 X74.1423 Y53.7156 
G01 X74.4054 Y53.6067 
G01 X74.6067 Y53.4054 
G01 X74.7156 Y53.1423 
G01 X74.7156 Y52.8576 
G01 X74.6067 Y52.5946 
G01 X74.4054 Y52.3933 
G01 X74.1423 Y52.2844 
G00 Z2.4000 
G00 X42.7598 Y19.0454 
G01 Z-0.1000 F50.00 
G01 X42.3542 Y19.0454 F100.00 
G01 X41.9624 Y19.1504 
G01 X41.6110 Y19.3532 
G01 X41.3242 Y19.6400 
G01 X41.1214 Y19.9914 
G01 X41.0164 Y20.3832 
G01 X41.0164 Y20.7888 
G01 X41.1214 Y21.1806 
G01 X41.3242 Y21.5320 
G01 X41.6110 Y21.8188 
G01 X41.9624 Y22.0216 
G01 X42.3542 Y22.1266 
G01 X42.7598 Y22.1266 
G01 X43.1516 Y22.0216 
G01 X43.5030 Y21.8188 
G01 X43.7898 Y21.5320 
G01 X43.9926 Y21.1806 
G01 X44.0976 Y20.7888 
G01 X44.0976 Y20.3832 
G01 X43.9926 Y19.9914 
G01 X43.7898 Y19.6400 
G01 X43.5030 Y19.3532 
G01 X43.1516 Y19.1504 
G01 X42.7598 Y19.0454 
G00 Z2.4000 
G00 X42.7598 Y39.8734 
G01 Z-0.1000 F50.00 
G01 X42.3542 Y39.8734 F100.00 
G01 X41.9624 Y39.9784 
G01 X41.6110 Y40.1812 
G01 X41.3242 Y40.4680 
G01 X41.1214 Y40.8194 
G01 X41.0164 Y41.2112 
G01 X41.0164 Y41.6168 
G01 X41.1214 Y42.0086 
G01 X41.3242 Y42.3600 
G01 X41.6110 Y42.6468 
G01 X41.9624 Y42.8496 
G01 X42.3542 Y42.9546 
G01 X42.7598 Y42.9546 
G01 X43.1516 Y42.8496 
G01 X43.5030 Y42.6468 
G01 X43.7898 Y42.3600 
G01 X43.9926 Y42.0086 
G01 X44.0976 Y41.6168 
G01 X44.0976 Y41.2112 
G01 X43.9926 Y40.8194 
G01 X43.7898 Y40.4680 
G01 X43.5030 Y40.1812 
G01 X43.1516 Y39.9784 
G01 X42.7598 Y39.8734 
G00 Z2.4000 
G00 X66.8933 Y44.5281 
G01 Z-0.1000 F50.00 
G01 X66.9531 Y44.7121 F100.00 
G01 X66.9834 Y44.9032 
G01 X66.9834 Y45.0968 
G01 X66.9531 Y45.2879 
G01 X66.8933 Y45.4719 
G01 X66.8352 Y45.5861 
G01 X66.9180 Y45.5259 
G01 X67.0738 Y45.4465 
G01 X67.1840 Y45.4107 
G01 X67.2400 Y45.3925 
G01 X67.4126 Y45.3652 
G01 X67.5874 Y45.3652 
G01 X67.6128 Y45.3692 
G01 X67.7600 Y45.3925 
G01 X67.8742 Y45.4296 
G01 X67.9262 Y45.4465 
G01 X68.0037 Y45.4860 
G01 X68.0820 Y45.5259 
G01 X68.1648 Y45.5861 
G01 X68.1067 Y45.4719 
G01 X68.0469 Y45.2879 
G01 X68.0166 Y45.0968 
G01 X68.0166 Y44.9032 
G01 X68.0469 Y44.7121 
G01 X68.1067 Y44.5281 
G01 X68.1648 Y44.4139 
G01 X68.0820 Y44.4741 
G01 X68.0075 Y44.5121 
G01 X67.9262 Y44.5535 
G01 X67.8703 Y44.5716 
G01 X67.7600 Y44.6075 
G01 X67.6167 Y44.6302 
G01 X67.5874 Y44.6348 
G01 X67.4126 Y44.6348 
G01 X67.2400 Y44.6075 
G01 X67.1879 Y44.5906 
G01 X67.0738 Y44.5535 
G01 X66.9180 Y44.4741 
G01 X66.8352 Y44.4139 
G01 X66.8933 Y44.5281 
G00 Z2.4000 
G00 X5.1423 Y52.2844 
G01 Z-0.1000 F50.00 
G01 X4.8577 Y52.2844 F100.00 
G01 X4.5946 Y52.3933 
G01 X4.3933 Y52.5946 
G01 X4.2844 Y52.8577 
G01 X4.2844 Y53.1423 
G01 X4.3933 Y53.4054 
G01 X4.5946 Y53.6067 
G01 X4.8577 Y53.7156 
G01 X5.1423 Y53.7156 
G01 X5.4054 Y53.6067 
G01 X5.6067 Y53.4054 
G01 X5.7156 Y53.1423 
G01 X5.7156 Y52.8577 
G01 X5.6067 Y52.5946 
G01 X5.4054 Y52.3933 
G01 X5.1423 Y52.2844 
G00 Z2.4000 
G00 X62.9597 Y40.0171 
G01 Z-0.1000 F50.00 
G01 X63.0194 Y40.1146 F100.00 
G01 X63.0166 Y40.0968 
G01 X63.0166 Y39.9032 
G01 X63.0383 Y39.7659 
G01 X63.0317 Y39.7737 
G01 X63.0060 Y39.8092 
G01 X62.9750 Y39.8401 
G01 X62.9466 Y39.8734 
G01 X62.9133 Y39.9018 
G01 X62.8852 Y39.9299 
G01 X62.9597 Y40.0171 
G00 Z2.4000 
G00 X66.8933 Y39.5281 
G01 Z-0.1000 F50.00 
G01 X66.9531 Y39.7121 F100.00 
G01 X66.9834 Y39.9032 
G01 X66.9834 Y40.0968 
G01 X66.9531 Y40.2879 
G01 X66.8933 Y40.4719 
G01 X66.8352 Y40.5861 
G01 X66.9180 Y40.5259 
G01 X67.0738 Y40.4465 
G01 X67.1840 Y40.4107 
G01 X67.2400 Y40.3925 
G01 X67.4126 Y40.3652 
G01 X67.5874 Y40.3652 
G01 X67.6128 Y40.3692 
G01 X67.7600 Y40.3925 
G01 X67.8742 Y40.4296 
G01 X67.9262 Y40.4465 
G01 X68.0037 Y40.4860 
G01 X68.0820 Y40.5259 
G01 X68.1648 Y40.5861 
G01 X68.1067 Y40.4719 
G01 X68.0469 Y40.2879 
G01 X68.0166 Y40.0968 
G01 X68.0166 Y39.9032 
G01 X68.0469 Y39.7121 
G01 X68.1067 Y39.5281 
G01 X68.1648 Y39.4139 
G01 X68.0820 Y39.4741 
G01 X68.0075 Y39.5121 
G01 X67.9262 Y39.5535 
G01 X67.8703 Y39.5716 
G01 X67.7600 Y39.6075 
G01 X67.6167 Y39.6302 
G01 X67.5874 Y39.6348 
G01 X67.4126 Y39.6348 
G01 X67.2400 Y39.6075 
G01 X67.1879 Y39.5906 
G01 X67.0738 Y39.5535 
G01 X66.9180 Y39.4741 
G01 X66.8352 Y39.4139 
G01 X66.8933 Y39.5281 
G00 Z2.4000 
G00 X55.8494 Y52.5971 
G01 Z-0.1000 F50.00 
G01 X55.8494 Y54.0829 F100.00 
G01 X55.8216 Y54.2585 
G01 X55.7667 Y54.4275 
G01 X55.6859 Y54.5859 
G01 X55.6634 Y54.6169 
G01 X55.6660 Y54.6156 
G01 X55.7033 Y54.5928 
G01 X55.7437 Y54.5760 
G01 X55.7827 Y54.5561 
G01 X55.8243 Y54.5426 
G01 X55.8648 Y54.5259 
G01 X55.9073 Y54.5157 
G01 X55.9489 Y54.5021 
G01 X55.9922 Y54.4953 
G01 X56.0347 Y54.4851 
G01 X56.0784 Y54.4816 
G01 X56.1216 Y54.4748 
G01 X56.1653 Y54.4748 
G01 X56.2090 Y54.4714 
G01 X56.2526 Y54.4748 
G01 X56.2963 Y54.4748 
G01 X56.3396 Y54.4816 
G01 X56.3832 Y54.4851 
G01 X56.4257 Y54.4953 
G01 X56.4690 Y54.5021 
G01 X56.5106 Y54.5157 
G01 X56.5532 Y54.5259 
G01 X56.5936 Y54.5426 
G01 X56.6352 Y54.5561 
G01 X56.6742 Y54.5760 
G01 X56.9883 Y54.7061 
G01 X57.5317 Y54.7061 
G01 X58.0338 Y54.4981 
G01 X58.4181 Y54.1138 
G01 X58.6261 Y53.6117 
G01 X58.6261 Y53.0683 
G01 X58.4181 Y52.5662 
G01 X58.0338 Y52.1819 
G01 X57.5317 Y51.9739 
G01 X56.7916 Y51.9739 
G01 X56.6190 Y51.9466 
G01 X56.4528 Y51.8925 
G01 X56.2970 Y51.8132 
G01 X56.1556 Y51.7105 
G01 X56.0320 Y51.5869 
G01 X55.9293 Y51.4455 
G01 X55.8499 Y51.2897 
G01 X55.8304 Y51.2296 
G01 X55.8304 Y52.4772 
G01 X55.8494 Y52.5971 
G00 Z2.4000 
G00 X53.5900 Y51.6136 
G01 Z-0.1000 F50.00 
G01 X53.5900 Y51.6137 F100.00 
G01 X53.5472 Y51.6976 
G01 X53.5107 Y51.7694 
G01 X53.4598 Y51.8394 
G01 X53.4080 Y51.9108 
G01 X53.3463 Y51.9724 
G01 X53.2904 Y52.0283 
G01 X53.2904 Y52.4772 
G01 X53.3094 Y52.5971 
G01 X53.3094 Y54.0829 
G01 X53.2904 Y54.2028 
G01 X53.2904 Y54.2603 
G01 X53.3956 Y54.2945 
G01 X53.5514 Y54.3738 
G01 X53.6306 Y54.4314 
G01 X53.6928 Y54.4766 
G01 X53.7041 Y54.4879 
G01 X53.6733 Y54.4275 
G01 X53.6184 Y54.2585 
G01 X53.5906 Y54.0829 
G01 X53.5906 Y52.5971 
G01 X53.6096 Y52.4772 
G01 X53.6096 Y51.5534 
G01 X53.5900 Y51.6136 
G00 Z2.4000 
G00 X56.4117 Y43.1587 
G01 Z-0.1000 F50.00 
G01 X56.4679 Y43.1300 F100.00 
G01 X56.4680 Y43.1300 
G01 X56.5282 Y43.1104 
G01 X56.4599 Y43.1104 
G01 X56.4117 Y43.1587 
G00 Z2.4000 
G00 X58.8845 Y36.0721 
G01 Z-0.1000 F50.00 
G01 X58.8439 Y36.1701 F100.00 
G01 X58.8439 Y36.1701 
G01 X58.7833 Y36.2691 
G01 X58.7526 Y36.3192 
G01 X58.6788 Y36.4055 
G01 X58.6391 Y36.4521 
G01 X58.5505 Y36.5277 
G01 X58.5062 Y36.5656 
G01 X58.3686 Y36.6499 
G01 X58.3572 Y36.6569 
G01 X58.2525 Y36.7003 
G01 X58.1957 Y36.7238 
G01 X58.1205 Y36.7418 
G01 X58.0257 Y36.7646 
G01 X57.9429 Y36.7711 
G01 X57.8515 Y36.7783 
G01 X57.7711 Y36.7720 
G01 X57.6773 Y36.7646 
G01 X57.6043 Y36.7471 
G01 X57.5494 Y36.7339 
G01 X56.9883 Y36.7339 
G01 X56.4862 Y36.9419 
G01 X56.1019 Y37.3262 
G01 X55.8939 Y37.8283 
G01 X55.8939 Y38.3717 
G01 X56.1019 Y38.8738 
G01 X56.2741 Y39.0460 
G01 X56.3073 Y39.0744 
G01 X56.3358 Y39.1077 
G01 X56.3667 Y39.1387 
G01 X56.3924 Y39.1741 
G01 X56.4209 Y39.2074 
G01 X56.4437 Y39.2447 
G01 X56.4694 Y39.2801 
G01 X56.4893 Y39.3191 
G01 X56.5122 Y39.3564 
G01 X56.5289 Y39.3968 
G01 X56.5488 Y39.4358 
G01 X56.5623 Y39.4774 
G01 X56.5791 Y39.5179 
G01 X56.5893 Y39.5604 
G01 X56.6028 Y39.6020 
G01 X56.6097 Y39.6453 
G01 X56.6199 Y39.6878 
G01 X56.6233 Y39.7314 
G01 X56.6301 Y39.7747 
G01 X56.6301 Y39.8184 
G01 X56.6336 Y39.8620 
G01 X56.6301 Y39.9057 
G01 X56.6301 Y39.9494 
G01 X56.6233 Y39.9927 
G01 X56.6199 Y40.0363 
G01 X56.6097 Y40.0788 
G01 X56.6028 Y40.1221 
G01 X56.5893 Y40.1637 
G01 X56.5791 Y40.2062 
G01 X56.5623 Y40.2467 
G01 X56.5488 Y40.2883 
G01 X56.5289 Y40.3273 
G01 X56.5122 Y40.3677 
G01 X56.4893 Y40.4050 
G01 X56.4694 Y40.4440 
G01 X56.4437 Y40.4794 
G01 X56.4209 Y40.5167 
G01 X56.3924 Y40.5500 
G01 X56.3667 Y40.5854 
G01 X56.3358 Y40.6164 
G01 X56.3073 Y40.6496 
G01 X56.2741 Y40.6781 
G01 X56.2431 Y40.7090 
G01 X56.2077 Y40.7347 
G01 X56.1744 Y40.7632 
G01 X56.1371 Y40.7860 
G01 X56.1017 Y40.8117 
G01 X56.0627 Y40.8316 
G01 X56.0254 Y40.8545 
G01 X55.9850 Y40.8712 
G01 X55.9489 Y40.8896 
G01 X57.5401 Y40.8896 
G01 X58.8896 Y39.5401 
G01 X58.8896 Y36.0599 
G01 X58.8845 Y36.0721 
G00 Z2.4000 
G00 X61.1575 Y40.0171 
G01 Z-0.1000 F50.00 
G01 X61.2497 Y39.9092 F100.00 
G01 X61.2710 Y39.8842 
G01 X61.3336 Y39.8307 
G01 X61.3120 Y39.8092 
G01 X61.2863 Y39.7738 
G01 X61.2579 Y39.7405 
G01 X61.2350 Y39.7032 
G01 X61.2093 Y39.6678 
G01 X61.1894 Y39.6288 
G01 X61.1666 Y39.5915 
G01 X61.1498 Y39.5510 
G01 X61.1300 Y39.5120 
G01 X61.1164 Y39.4704 
G01 X61.1104 Y39.4558 
G01 X61.1104 Y40.0874 
G01 X61.1090 Y40.0963 
G01 X61.1575 Y40.0171 
G00 Z2.4000 
G00 X61.1300 Y36.5873 
G01 Z-0.1000 F50.00 
G01 X61.1587 Y36.5309 F100.00 
G01 X61.1104 Y36.5792 
G01 X61.1104 Y36.6475 
G01 X61.1300 Y36.5873 
G00 Z2.4000 
G00 X62.4680 Y35.2492 
G01 Z-0.1000 F50.00 
G01 X62.5282 Y35.2296 F100.00 
G01 X62.4599 Y35.2296 
G01 X62.4117 Y35.2779 
G01 X62.4680 Y35.2492 
G00 Z2.4000 
G00 X71.2592 Y35.2492 
G01 Z-0.1000 F50.00 
G01 X71.4150 Y35.3285 F100.00 
G01 X71.5564 Y35.4313 
G01 X71.6800 Y35.5549 
G01 X71.7827 Y35.6963 
G01 X71.8620 Y35.8520 
G01 X71.8816 Y35.9122 
G01 X71.8816 Y35.4519 
G01 X71.6593 Y35.2296 
G01 X71.1991 Y35.2296 
G01 X71.2592 Y35.2492 
G00 Z2.4000 
G00 X71.8620 Y38.1482 
G01 Z-0.1000 F50.00 
G01 X71.7827 Y38.3040 F100.00 
G01 X71.6800 Y38.4454 
G01 X71.5564 Y38.5690 
G01 X71.4150 Y38.6717 
G01 X71.2592 Y38.7510 
G01 X71.0930 Y38.8051 
G01 X71.0673 Y38.8091 
G01 X71.2259 Y38.8607 
G01 X71.2827 Y38.8896 
G01 X71.5401 Y38.8896 
G01 X71.8816 Y38.5481 
G01 X71.8816 Y38.0881 
G01 X71.8620 Y38.1482 
G00 Z2.4000 
G00 X72.7326 Y40.8378 
G01 Z-0.1000 F50.00 
G01 X72.7394 Y40.8361 F100.00 
G01 X72.7810 Y40.8226 
G01 X72.8242 Y40.8158 
G01 X72.8668 Y40.8055 
G01 X72.9104 Y40.8021 
G01 X72.9537 Y40.7953 
G01 X72.9974 Y40.7953 
G01 X73.0410 Y40.7918 
G01 X73.0847 Y40.7953 
G01 X73.1284 Y40.7953 
G01 X73.1716 Y40.8021 
G01 X73.2153 Y40.8055 
G01 X73.2578 Y40.8158 
G01 X73.3011 Y40.8226 
G01 X73.3427 Y40.8361 
G01 X73.3852 Y40.8463 
G01 X73.4257 Y40.8631 
G01 X73.4673 Y40.8766 
G01 X73.5063 Y40.8965 
G01 X73.5467 Y40.9132 
G01 X73.5840 Y40.9361 
G01 X73.6230 Y40.9560 
G01 X73.6584 Y40.9817 
G01 X73.6957 Y41.0046 
G01 X73.7290 Y41.0330 
G01 X73.7644 Y41.0587 
G01 X73.7954 Y41.0896 
G01 X73.8286 Y41.1181 
G01 X73.8571 Y41.1513 
G01 X73.8880 Y41.1823 
G01 X73.9137 Y41.2177 
G01 X73.9422 Y41.2510 
G01 X73.9650 Y41.2883 
G01 X73.9907 Y41.3237 
G01 X74.0106 Y41.3627 
G01 X74.0335 Y41.4000 
G01 X74.0502 Y41.4404 
G01 X74.0701 Y41.4794 
G01 X74.0836 Y41.5211 
G01 X74.1004 Y41.5615 
G01 X74.1106 Y41.6040 
G01 X74.1241 Y41.6456 
G01 X74.1309 Y41.6889 
G01 X74.1412 Y41.7314 
G01 X74.1446 Y41.7751 
G01 X74.1514 Y41.8183 
G01 X74.1514 Y41.8620 
G01 X74.1549 Y41.9057 
G01 X74.1514 Y41.9493 
G01 X74.1514 Y41.9931 
G01 X74.1446 Y42.0363 
G01 X74.1412 Y42.0799 
G01 X74.1309 Y42.1225 
G01 X74.1241 Y42.1657 
G01 X74.1106 Y42.2073 
G01 X74.1004 Y42.2499 
G01 X74.0836 Y42.2903 
G01 X74.0701 Y42.3319 
G01 X74.0502 Y42.3709 
G01 X74.0442 Y42.3855 
G01 X74.8896 Y41.5401 
G01 X74.8896 Y40.6880 
G01 X74.2946 Y40.0930 
G01 X74.2946 Y38.6470 
G01 X75.2552 Y37.6864 
G01 X75.0636 Y37.6864 
G01 X74.8910 Y37.6591 
G01 X74.7248 Y37.6050 
G01 X74.5690 Y37.5257 
G01 X74.4276 Y37.4230 
G01 X74.3040 Y37.2994 
G01 X74.2013 Y37.1580 
G01 X74.1219 Y37.0022 
G01 X74.1024 Y36.9421 
G01 X74.1024 Y39.0954 
G01 X74.0751 Y39.2680 
G01 X74.0210 Y39.4342 
G01 X73.9417 Y39.5900 
G01 X73.8390 Y39.7314 
G01 X73.7154 Y39.8550 
G01 X72.7326 Y40.8378 
G00 Z2.4000 
G00 X72.5320 Y43.8700 
G01 Z-0.1000 F50.00 
G01 X72.4718 Y43.8896 F100.00 
G01 X72.5401 Y43.8896 
G01 X72.5883 Y43.8413 
G01 X72.5320 Y43.8700 
G00 Z2.4000 
G00 X55.8304 Y43.8082 
G01 Z-0.1000 F50.00 
G01 X55.8499 Y43.7481 F100.00 
G01 X55.8499 Y43.7481 
G01 X55.8787 Y43.6917 
G01 X55.8304 Y43.7399 
G01 X55.8304 Y43.8082 
G00 Z2.4000 
G00 X77.1050 Y42.1259 
G01 Z-0.1000 F50.00 
G01 X77.1279 Y42.0886 F100.00 
G01 X77.1563 Y42.0553 
G01 X77.1820 Y42.0199 
G01 X77.2130 Y41.9890 
G01 X77.2414 Y41.9557 
G01 X77.2747 Y41.9273 
G01 X77.3056 Y41.8963 
G01 X77.3410 Y41.8706 
G01 X77.3743 Y41.8422 
G01 X77.4116 Y41.8193 
G01 X77.4470 Y41.7936 
G01 X77.4860 Y41.7737 
G01 X77.5233 Y41.7509 
G01 X77.5638 Y41.7341 
G01 X77.6028 Y41.7142 
G01 X77.6444 Y41.7007 
G01 X77.6848 Y41.6840 
G01 X77.7273 Y41.6738 
G01 X77.7690 Y41.6602 
G01 X77.8122 Y41.6534 
G01 X77.8547 Y41.6432 
G01 X77.8984 Y41.6397 
G01 X77.9416 Y41.6329 
G01 X77.9854 Y41.6329 
G01 X78.0290 Y41.6294 
G01 X78.0726 Y41.6329 
G01 X78.1164 Y41.6329 
G01 X78.1596 Y41.6397 
G01 X78.2032 Y41.6432 
G01 X78.2458 Y41.6534 
G01 X78.2890 Y41.6602 
G01 X78.3307 Y41.6738 
G01 X78.3732 Y41.6840 
G01 X78.4136 Y41.7007 
G01 X78.4552 Y41.7142 
G01 X78.4942 Y41.7341 
G01 X78.5347 Y41.7508 
G01 X78.5720 Y41.7737 
G01 X78.6110 Y41.7936 
G01 X78.6464 Y41.8193 
G01 X78.6837 Y41.8422 
G01 X78.7170 Y41.8706 
G01 X78.7524 Y41.8963 
G01 X78.7833 Y41.9273 
G01 X78.8166 Y41.9557 
G01 X78.8450 Y41.9890 
G01 X78.8760 Y42.0199 
G01 X78.9017 Y42.0553 
G01 X78.9301 Y42.0886 
G01 X78.9530 Y42.1259 
G01 X78.9787 Y42.1613 
G01 X78.9986 Y42.2003 
G01 X79.0214 Y42.2376 
G01 X79.0382 Y42.2781 
G01 X79.0580 Y42.3170 
G01 X79.0716 Y42.3587 
G01 X79.0883 Y42.3991 
G01 X79.0985 Y42.4416 
G01 X79.1121 Y42.4833 
G01 X79.1189 Y42.5265 
G01 X79.1291 Y42.5690 
G01 X79.1325 Y42.6126 
G01 X79.1394 Y42.6559 
G01 X79.1394 Y42.6997 
G01 X79.1428 Y42.7433 
G01 X79.1394 Y42.7869 
G01 X79.1394 Y56.3064 
G01 X79.1121 Y56.4790 
G01 X79.0580 Y56.6452 
G01 X78.9787 Y56.8010 
G01 X78.8760 Y56.9424 
G01 X78.7524 Y57.0660 
G01 X78.6110 Y57.1687 
G01 X78.4552 Y57.2480 
G01 X78.2890 Y57.3021 
G01 X78.1164 Y57.3294 
G01 X1.5636 Y57.3294 
G01 X1.3910 Y57.3021 
G01 X1.2248 Y57.2480 
G01 X1.0690 Y57.1687 
G01 X0.9276 Y57.0660 
G01 X0.8040 Y56.9424 
G01 X0.7013 Y56.8010 
G01 X0.6220 Y56.6452 
G01 X0.5679 Y56.4790 
G01 X0.5406 Y56.3064 
G01 X0.5406 Y1.5636 
G01 X0.5679 Y1.3910 
G01 X0.6220 Y1.2248 
G01 X0.7013 Y1.0690 
G01 X0.8040 Y0.9276 
G01 X0.9276 Y0.8040 
G01 X1.0690 Y0.7013 
G01 X1.2248 Y0.6220 
G01 X1.3910 Y0.5679 
G01 X1.5636 Y0.5406 
G01 X78.1164 Y0.5406 
G01 X78.2890 Y0.5679 
G01 X78.4552 Y0.6220 
G01 X78.6110 Y0.7013 
G01 X78.7524 Y0.8040 
G01 X78.8760 Y0.9276 
G01 X78.9787 Y1.0690 
G01 X79.0580 Y1.2248 
G01 X79.1121 Y1.3910 
G01 X79.1394 Y1.5636 
G01 X79.1394 Y30.7731 
G01 X79.1121 Y30.9457 
G01 X79.1101 Y30.9517 
G01 X79.0580 Y31.1120 
G01 X78.9806 Y31.2639 
G01 X78.9787 Y31.2677 
G01 X78.8760 Y31.4091 
G01 X78.7524 Y31.5327 
G01 X78.6129 Y31.6340 
G01 X78.6090 Y31.6364 
G01 X78.4552 Y31.7148 
G01 X78.3468 Y31.7500 
G01 X78.4552 Y31.7852 
G01 X78.6110 Y31.8646 
G01 X78.7524 Y31.9673 
G01 X78.8760 Y32.0909 
G01 X78.9787 Y32.2323 
G01 X79.0580 Y32.3880 
G01 X79.1121 Y32.5543 
G01 X79.1394 Y32.7269 
G01 X79.1394 Y37.4951 
G01 X79.1121 Y37.6677 
G01 X79.0580 Y37.8339 
G01 X78.9787 Y37.9897 
G01 X78.8760 Y38.1311 
G01 X78.7543 Y38.2527 
G01 X78.7156 Y38.2813 
G01 X78.6110 Y38.3574 
G01 X78.5571 Y38.3848 
G01 X78.4552 Y38.4367 
G01 X78.3312 Y38.4770 
G01 X78.2890 Y38.4907 
G01 X78.1164 Y38.5181 
G01 X77.9416 Y38.5181 
G01 X77.7690 Y38.4907 
G01 X77.6028 Y38.4367 
G01 X77.5464 Y38.4080 
G01 X77.7854 Y38.6470 
G01 X77.7854 Y40.0930 
G01 X77.1104 Y40.7680 
G01 X77.1104 Y42.0874 
G01 X77.1041 Y42.1272 
G00 Z2.4000 
G00 Z2.400000
G00 X5.0000 Y53.0000 
G01 Z-0.2794 F50.00 
G01 Z2.400000
(R2.4000  P1.000000)
(G00 Z2.400000)
G00 X74.0000 Y53.0000 
G01 Z-1.700000
G01 Z2.400000
(G00 Z2.400000)
G00 X62.1900 Y22.0000 
G01 Z-1.700000
G01 Z2.400000
(G00 Z2.400000)
G00 X67.2700 Y22.0000 
G01 Z-1.700000
G01 Z2.400000
(G00 Z2.400000)
G00 X64.7300 Y22.0000 
G01 Z-1.700000
G01 Z2.400000
(G00 Z2.400000)
G00 X69.8100 Y22.0000 
G01 Z-1.700000
G01 Z2.400000
(G00 Z2.400000)
G00 X52.1800 Y38.1000 
G01 Z-1.700000
G01 Z2.400000
(G00 Z2.400000)
G00 X47.1000 Y38.1000 
G01 Z-1.700000
G01 Z2.400000
(G00 Z2.400000)
G00 X54.7200 Y53.3400 
G01 Z-1.700000
G01 Z2.400000
(G00 Z2.400000)
G00 X52.1800 Y53.3400 
G01 Z-1.700000
G01 Z2.400000
(G00 Z2.400000)
G00 X47.1000 Y53.3400 
G01 Z-1.700000
G01 Z2.400000
(G00 Z2.400000)
G00 X39.4800 Y53.3400 
G01 Z-1.700000
G01 Z2.400000
(G00 Z2.400000)
G00 X36.9400 Y53.3400 
G01 Z-1.700000
G01 Z2.400000
(G00 Z2.400000)
G00 X16.6200 Y38.1000 
G01 Z-1.700000
G01 Z2.400000
(G00 Z2.400000)
G00 X16.6200 Y53.3400 
G01 Z-1.700000
G01 Z2.400000
(G00 Z2.400000)
G00 X57.2600 Y53.3400 
G01 Z-1.700000
G01 Z2.400000
(G00 Z2.400000)
G00 X57.2600 Y38.1000 
G01 Z-1.700000
G01 Z2.400000
(G00 Z2.400000)
G00 X76.0400 Y31.7500 
G01 Z-1.700000
G01 Z2.400000
(G00 Z2.400000)
G00 X76.0400 Y39.3700 
G01 Z-1.700000
G01 Z2.400000
(G00 Z2.400000)
G00 X70.0000 Y40.0000 
G01 Z-1.700000
G01 Z2.400000
(G00 Z2.400000)
G00 X65.0000 Y40.0000 
G01 Z-1.700000
G01 Z2.400000
(G00 Z2.400000)
G00 X70.0000 Y45.0000 
G01 Z-1.700000
G01 Z2.400000
(G00 Z2.400000)
G00 X65.0000 Y45.0000 
G01 Z-1.700000
G01 Z2.400000
(G00 Z2.400000)
G00 X18.3000 Y27.1900 
G01 Z-1.700000
G01 Z2.400000
(G00 Z2.400000)
G00 X18.3000 Y29.7300 
G01 Z-1.700000
G01 Z2.400000
(G00 Z2.400000)
G00 X18.3000 Y32.2700 
G01 Z-1.700000
G01 Z2.400000
(G00 Z2.400000)
G00 X18.3000 Y34.8100 
G01 Z-1.700000
G01 Z2.400000
(G00 Z2.400000)
G00 X19.4430 Y20.5860 
G01 Z-1.700000
G01 Z2.400000
(G00 Z2.400000)
G00 X19.4430 Y41.4140 
G01 Z-1.700000
G01 Z2.400000
(G00 Z2.400000)
G00 X42.5570 Y41.4140 
G01 Z-1.700000
G01 Z2.400000
(G00 Z2.400000)
G00 X42.5570 Y20.5860 
G01 Z-1.700000
G01 Z2.400000
G00 Z12.7000 
M05
M02
