(.../pcb-gcode-3.6.0.4/pcb-gcode.ulp)
(Copyright 2005 - 2012 by John Johnson)
(See readme.txt for licensing terms.)
(This file generated from the board:)
(.../HandHeld_O2_Analyzer/HandHeld_O2_Analyzer.brd)
(Current profile is .../pcb-gcode-3.6.0.4/profiles/generic.pp  )
(This file generated 3/1/2021 4:10 PM)
(Settings from pcb-machine.h)
(  Tool Size)
(0.3000 )
(Z Axis Settings)
(  High     Up        Down     Drill)
(12.7000 	2.4000 	-0.1000 	-1.7000 )
(spindle on time = 3.0000)
(milling depth = -0.2540)
(text depth = -0.1270)
(tool change at 0.0000 -12.0000 20.0000 )
(feed rate xy = F100.00 )
(feed rate z  = F50.00 )
(Settings from pcb-defaults.h)
(isolate min = 0.0254)
(isolate max = 0.3000)
(isolate step = 0.3000)
(Generated top outlines, top drill, bottom drill, )
(Unit of measure: mm)
( Tool|       Size       |  Min Sub |  Max Sub |   Count )
( T01  0.350mm 0.0138in 0.0000in 0.0000in )
( T02  0.800mm 0.0315in 0.0000in 0.0000in )
( T03  0.813mm 0.0320in 0.0000in 0.0000in )
( T04  1.000mm 0.0394in 0.0000in 0.0000in )
( T05  1.651mm 0.0650in 0.0000in 0.0000in )
( T06  2.000mm 0.0787in 0.0000in 0.0000in )
(Metric Mode)
G21
(Absolute Coordinates)
G90
M05
G00 Z20.0000 
G00 X0.0000 Y-12.0000 
M06 T01  ; 0.3500 
G01 Z0.0000 F50.00 
M06 T01  ; 0.3500 
G00 Z2.4000 
M03
G04 P3.000000
G00 Z2.400000
G00 X-5.0000 Y53.0000 
G01 Z-1.7000 F50.00 
G01 Z2.400000
(R2.4000  P1.000000)
(G00 Z2.400000)
G00 X-74.0000 Y53.0000 
G01 Z-1.700000
G01 Z2.400000
M05
G00 Z20.0000 
M06 T02  ; 0.8000 
G01 Z0.0000 F50.00 
M06 T02  ; 0.8000 
G00 Z2.4000 
M03
G04 P3.000000
G00 Z2.400000
G00 X-36.9400 Y53.3400 
G01 Z-1.7000 F50.00 
G01 Z2.400000
(R2.4000  P1.000000)
(G00 Z2.400000)
G00 X-39.4800 Y53.3400 
G01 Z-1.700000
G01 Z2.400000
(G00 Z2.400000)
G00 X-47.1000 Y38.1000 
G01 Z-1.700000
G01 Z2.400000
(G00 Z2.400000)
G00 X-47.1000 Y53.3400 
G01 Z-1.700000
G01 Z2.400000
(G00 Z2.400000)
G00 X-52.1800 Y38.1000 
G01 Z-1.700000
G01 Z2.400000
(G00 Z2.400000)
G00 X-52.1800 Y53.3400 
G01 Z-1.700000
G01 Z2.400000
(G00 Z2.400000)
G00 X-54.7200 Y53.3400 
G01 Z-1.700000
G01 Z2.400000
M05
G00 Z20.0000 
M06 T03  ; 0.8128 
G01 Z0.0000 F50.00 
M06 T03  ; 0.8128 
G00 Z2.4000 
M03
G04 P3.000000
G00 Z2.400000
G00 X-62.1900 Y22.0000 
G01 Z-1.7000 F50.00 
G01 Z2.400000
(R2.4000  P1.000000)
(G00 Z2.400000)
G00 X-64.7300 Y22.0000 
G01 Z-1.700000
G01 Z2.400000
(G00 Z2.400000)
G00 X-67.2700 Y22.0000 
G01 Z-1.700000
G01 Z2.400000
(G00 Z2.400000)
G00 X-69.8100 Y22.0000 
G01 Z-1.700000
G01 Z2.400000
(G00 Z2.400000)
G00 X-76.0400 Y31.7500 
G01 Z-1.700000
G01 Z2.400000
(G00 Z2.400000)
G00 X-76.0400 Y39.3700 
G01 Z-1.700000
G01 Z2.400000
M05
G00 Z20.0000 
M06 T04  ; 1.0000 
G01 Z0.0000 F50.00 
M06 T04  ; 1.0000 
G00 Z2.4000 
M03
G04 P3.000000
G00 Z2.400000
G00 X-65.0000 Y40.0000 
G01 Z-1.7000 F50.00 
G01 Z2.400000
(R2.4000  P1.000000)
(G00 Z2.400000)
G00 X-65.0000 Y45.0000 
G01 Z-1.700000
G01 Z2.400000
(G00 Z2.400000)
G00 X-70.0000 Y40.0000 
G01 Z-1.700000
G01 Z2.400000
(G00 Z2.400000)
G00 X-70.0000 Y45.0000 
G01 Z-1.700000
G01 Z2.400000
(G00 Z2.400000)
G00 X-18.3000 Y32.2700 
G01 Z-1.700000
G01 Z2.400000
(G00 Z2.400000)
G00 X-18.3000 Y34.8100 
G01 Z-1.700000
G01 Z2.400000
(G00 Z2.400000)
G00 X-18.3000 Y27.1900 
G01 Z-1.700000
G01 Z2.400000
(G00 Z2.400000)
G00 X-18.3000 Y29.7300 
G01 Z-1.700000
G01 Z2.400000
M05
G00 Z20.0000 
M06 T05  ; 1.6510 
G01 Z0.0000 F50.00 
M06 T05  ; 1.6510 
G00 Z2.4000 
M03
G04 P3.000000
G00 Z2.400000
G00 X-57.2600 Y38.1000 
G01 Z-1.7000 F50.00 
G01 Z2.400000
(R2.4000  P1.000000)
(G00 Z2.400000)
G00 X-57.2600 Y53.3400 
G01 Z-1.700000
G01 Z2.400000
(G00 Z2.400000)
G00 X-16.6200 Y38.1000 
G01 Z-1.700000
G01 Z2.400000
(G00 Z2.400000)
G00 X-16.6200 Y53.3400 
G01 Z-1.700000
G01 Z2.400000
M05
G00 Z20.0000 
M06 T06  ; 2.0000 
G01 Z0.0000 F50.00 
M06 T06  ; 2.0000 
G00 Z2.4000 
M03
G04 P3.000000
G00 Z2.400000
G00 X-42.5570 Y41.4140 
G01 Z-1.7000 F50.00 
G01 Z2.400000
(R2.4000  P1.000000)
(G00 Z2.400000)
G00 X-42.5570 Y20.5860 
G01 Z-1.700000
G01 Z2.400000
(G00 Z2.400000)
G00 X-19.4430 Y41.4140 
G01 Z-1.700000
G01 Z2.400000
(G00 Z2.400000)
G00 X-19.4430 Y20.5860 
G01 Z-1.700000
G01 Z2.400000
T01 
G00 Z12.7000 
M05
M02
